; generated by PrusaSlicer 2.6.0+win64 on 2024-02-05 at 19:46:59 UTC

; 

; external perimeters extrusion width = 0.42mm
; perimeters extrusion width = 0.44mm
; infill extrusion width = 0.44mm
; solid infill extrusion width = 0.44mm
; top infill extrusion width = 0.40mm
; support material extrusion width = 0.36mm
; first layer extrusion width = 0.42mm

M201 X500 Y500 Z100 E5000 ; sets maximum accelerations, mm/sec^2
M203 X500 Y500 Z10 E60 ; sets maximum feedrates, mm / sec
M204 S500 T1000 ; sets acceleration (S) and retract acceleration (R), mm/sec^2
M205 X8.00 Y8.00 Z0.40 E5.00 ; sets the jerk limits, mm/sec
M205 S0 T0 ; sets the minimum extruding and travel feed rate, mm/sec
;TYPE:Custom
G90 ; use absolute coordinates
M83 ; extruder relative mode
M104 S150 ; set temporary nozzle temp to prevent oozing during homing
M140 S60 ; set final bed temp
G4 S30 ; allow partial nozzle warmup
G28 ; home all axis and restore leveling
G1 Z50 F240
G1 X2.0 Y10 F3000
M104 S215 ; set final nozzle temp
M190 S60 ; wait for bed temp to stabilize
M109 S215 ; wait for nozzle temp to stabilize
G1 Z0.28 F240
G92 E0
G1 X2.0 Y140 E10 F1500 ; prime the nozzle
G1 X2.3 Y140 F5000
G92 E0
G1 X2.3 Y10 E10 F1200 ; prime the nozzle
G92 E0
G21 ; set units to millimeters
G90 ; use absolute coordinates
M83 ; use relative distances for extrusion
; Filament gcode
M107
;LAYER_CHANGE
;Z:0.2
;HEIGHT:0.2
;BEFORE_LAYER_CHANGE
G92 E0
;0.2


G1 E-.8 F1800
G1 Z.2 F9000
;AFTER_LAYER_CHANGE
;0.2
G1 X76.986 Y86.835
G1 E.8 F1800
M204 S500
;TYPE:Skirt/Brim
;WIDTH:0.42
G1 F1200
G1 X77.584 Y86.394 E.0233
G1 X79.261 Y85.519 E.05931
G1 X81.088 Y85.031 E.05929
G1 X82.563 Y84.927 E.04636
G1 X128.266 Y86.031 E1.4334
G1 X129.84 Y86.463 E.05118
G1 X131.027 Y87.582 E.05115
G1 X131.562 Y89.407 E.05963
G1 X131.562 Y131.407 E1.31688
G1 X131.168 Y132.99 E.05115
G1 X130.078 Y134.203 E.05113
G1 X128.185 Y134.784 E.06209
G1 X85.013 Y134.779 E1.35363
G1 X81.735 Y134.597 E.10294
G1 X80.648 Y134.439 E.03444
G1 X79.444 Y134.083 E.03937
G1 X78.06 Y133.425 E.04805
G1 X77.151 Y132.8 E.03459
G1 X76.57 Y132.294 E.02416
G1 X75.795 Y131.444 E.03607
G1 X75.343 Y130.819 E.02418
G1 X74.576 Y129.347 E.05204
G1 X74.135 Y127.849 E.04896
G1 X73.982 Y126.617 E.03893
G1 X73.709 Y118.257 E.26226
G1 X73.709 Y101.768 E.517
G1 X73.793 Y93.205 E.2685
G1 X74.06 Y91.381 E.0578
G1 X74.359 Y90.452 E.0306
G1 X74.75 Y89.569 E.03028
G1 X75.653 Y88.177 E.05202
G1 X76.944 Y86.878 E.05742
; printing object graber thingie top.stl id:0 copy 0
;WIPE_START
G1 F7200
G1 X77.584 Y86.394 E-.19057
G1 X79.261 Y85.519 E-.44924
G1 X79.913 Y85.345 E-.16019
;WIPE_END
G1 X83.091 Y88.372 F9000
G1 E.8 F1800
;TYPE:Support material
G1 F1200
G1 X83.69 Y88.47 E.01903
G1 X84.734 Y88.861 E.03495
G1 X84.942 Y88.996 E.00777
G1 X84.723 Y89.215 E.00971
G1 X84.723 Y105.338 E.50553
G1 X84.994 Y105.609 E.01202
G1 X86.567 Y105.609 E.04932
G1 X85.819 Y106.398 E.03409
G1 X84.867 Y107.044 E.03607
G1 X83.798 Y107.47 E.03608
G1 X82.663 Y107.656 E.03606
G1 X81.514 Y107.593 E.03608
G1 X80.406 Y107.286 E.03605
G1 X79.389 Y106.747 E.03609
G1 X78.512 Y106.002 E.03608
G1 X77.816 Y105.086 E.03607
G1 X77.333 Y104.042 E.03607
G1 X77.086 Y102.918 E.03608
G1 X77.086 Y101.768 E.03606
G1 X77.333 Y100.644 E.03608
G1 X77.816 Y99.6 E.03607
G1 X77.891 Y99.501 E.00389
G1 X77.735 Y99.087 E.01387
G1 X77.6 Y98.52 E.01827
G1 X77.532 Y97.957 E.01778
G1 X77.532 Y97.375 E.01825
G1 X77.6 Y96.812 E.01778
G1 X77.735 Y96.245 E.01827
G1 X77.808 Y96.052 E.00647
G1 X77.547 Y95.487 E.01951
G1 X77.358 Y94.948 E.01791
G1 X77.234 Y94.384 E.01811
G1 X77.17 Y93.816 E.01792
G1 X77.17 Y93.238 E.01812
G1 X77.234 Y92.67 E.01792
G1 X77.358 Y92.107 E.01808
G1 X77.547 Y91.567 E.01794
G1 X77.815 Y90.987 E.02003
G1 X78.43 Y90.097 E.03392
G1 X79.276 Y89.317 E.03608
G1 X80.272 Y88.741 E.03608
G1 X81.37 Y88.397 E.03608
G1 X82.481 Y88.304 E.03496
G1 X83.034 Y88.366 E.01745
;WIPE_START
G1 F7200
G1 X82.481 Y88.304 E-.13216
G1 X81.37 Y88.397 E-.26479
G1 X80.272 Y88.741 E-.27327
G1 X79.799 Y89.015 E-.12978
;WIPE_END
G1 X85.736 Y106.239 F9000
G1 E.8 F1800
G1 F1200
G1 X85.736 Y105.948 E.00912
G1 X85.317 Y105.948 E.01314
G1 X85.317 Y106.329 E.01195
G1 X84.898 Y106.613 E.01587
G1 X84.898 Y105.948 E.02085
G1 X84.853 Y105.948 E.00141
G1 X84.479 Y105.575 E.01656
G1 X84.479 Y106.833 E.03944
G1 X84.06 Y107 E.01414
G1 X84.06 Y88.971 E.56529
G1 X83.641 Y88.815 E.01402
G1 X83.641 Y107.151 E.57491
G1 X83.222 Y107.22 E.01331
G1 X83.222 Y88.738 E.57949
G1 X82.803 Y88.681 E.01326
G1 X82.803 Y107.289 E.58344
G1 X82.644 Y107.315 E.00505
G1 X82.384 Y107.301 E.00816
G1 X82.384 Y88.652 E.58473
G1 X81.965 Y88.687 E.01318
G1 X81.965 Y107.278 E.58291
G1 X81.546 Y107.25 E.01317
G1 X81.546 Y88.722 E.58093
G1 X81.435 Y88.732 E.00349
G1 X81.127 Y88.828 E.01012
G1 X81.127 Y107.134 E.57397
G1 X80.708 Y107.017 E.01364
G1 X80.708 Y88.96 E.56616
G1 X80.409 Y89.054 E.00983
G1 X80.289 Y89.123 E.00434
G1 X80.289 Y106.84 E.5555
G1 X79.87 Y106.618 E.01487
G1 X79.87 Y89.365 E.54096
G1 X79.451 Y89.617 E.01533
G1 X79.451 Y106.354 E.52478
G1 X79.032 Y105.998 E.01724
G1 X79.032 Y90.004 E.50148
G1 X78.688 Y90.321 E.01467
G1 X78.613 Y90.429 E.00412
G1 X78.613 Y105.574 E.47486
G1 X78.194 Y105.023 E.0217
G1 X78.194 Y91.035 E.43858
G1 X78.111 Y91.156 E.0046
G1 X77.862 Y91.695 E.01862
G1 X77.776 Y91.941 E.00817
G1 X77.776 Y95.577 E.114
G1 X77.776 Y104.594 F9000
G1 F1200
G1 X77.776 Y100.092 E.14116
;WIPE_START
G1 F7200
G1 X77.776 Y103.46 E-.8
;WIPE_END
G1 X83.238 Y112.464 F9000
G1 E.8 F1800
G1 F1200
G1 X83.798 Y112.556 E.01779
G1 X84.867 Y112.981 E.03607
G1 X85.819 Y113.627 E.03607
G1 X87.223 Y115.109 E.06401
G1 X87.223 Y115.204 E.00298
G1 X84.994 Y115.204 E.06989
G1 X84.723 Y115.475 E.01202
G1 X84.723 Y130.65 E.4758
G1 X84.464 Y130.805 E.00946
G1 X83.369 Y131.159 E.03608
G1 X82.223 Y131.255 E.03606
G1 X81.136 Y131.097 E.03444
G1 X80.56 Y130.895 E.01914
G1 X79.973 Y130.643 E.02003
G1 X79.065 Y130.018 E.03456
G1 X78.289 Y129.168 E.03609
G1 X77.764 Y128.231 E.03368
G1 X77.555 Y127.635 E.0198
G1 X77.421 Y127.07 E.01821
G1 X77.358 Y126.506 E.01779
G1 X77.358 Y125.925 E.01822
G1 X77.421 Y125.361 E.01779
G1 X77.555 Y124.796 E.01821
G1 X77.764 Y124.2 E.0198
G1 X77.855 Y124.037 E.00585
G1 X77.735 Y123.719 E.01066
G1 X77.6 Y123.152 E.01827
G1 X77.532 Y122.589 E.01778
G1 X77.532 Y122.006 E.01828
G1 X77.6 Y121.443 E.01778
G1 X77.735 Y120.876 E.01827
G1 X77.876 Y120.504 E.01247
G1 X77.816 Y120.425 E.00311
G1 X77.333 Y119.381 E.03607
G1 X77.086 Y118.257 E.03608
G1 X77.086 Y117.107 E.03606
G1 X77.333 Y115.983 E.03608
G1 X77.816 Y114.939 E.03607
G1 X78.512 Y114.023 E.03607
G1 X79.389 Y113.278 E.03608
G1 X80.406 Y112.74 E.03607
G1 X81.514 Y112.432 E.03606
G1 X82.663 Y112.37 E.03608
G1 X83.183 Y112.455 E.01652
G1 X86.155 Y115.035 F9000
G1 F1200
G1 X86.155 Y114.475 E.01756
G1 X85.736 Y114.033 E.0191
G1 X85.736 Y114.865 E.02609
G1 X85.317 Y114.865 E.01314
G1 X85.317 Y113.697 E.03662
G1 X84.898 Y113.413 E.01587
G1 X84.898 Y114.865 E.04553
G1 X84.853 Y114.865 E.00141
G1 X84.479 Y115.239 E.01658
G1 X84.479 Y113.192 E.06418
G1 X84.06 Y113.025 E.01414
G1 X84.06 Y130.579 E.55039
G1 X83.641 Y130.714 E.0138
G1 X83.641 Y112.874 E.55936
G1 X83.222 Y112.805 E.01331
G1 X83.222 Y130.831 E.56519
G1 X82.803 Y130.866 E.01318
G1 X82.803 Y112.736 E.56845
G1 X82.644 Y112.71 E.00505
G1 X82.384 Y112.724 E.00816
G1 X82.384 Y130.901 E.56993
G1 X82.233 Y130.914 E.00475
G1 X81.965 Y130.875 E.00849
G1 X81.965 Y112.747 E.56839
G1 X81.546 Y112.775 E.01317
G1 X81.546 Y130.814 E.5656
G1 X81.217 Y130.766 E.01042
G1 X81.127 Y130.735 E.00298
G1 X81.127 Y112.891 E.55949
G1 X80.708 Y113.008 E.01364
G1 X80.708 Y130.588 E.55121
G1 X80.289 Y130.409 E.01429
G1 X80.289 Y113.185 E.54005
G1 X79.87 Y113.407 E.01487
G1 X79.87 Y130.16 E.52528
G1 X79.451 Y129.872 E.01594
G1 X79.451 Y113.671 E.50797
G1 X79.032 Y114.027 E.01724
G1 X79.032 Y129.479 E.48449
G1 X78.613 Y129.02 E.01949
G1 X78.613 Y114.451 E.4568
G1 X78.194 Y115.002 E.0217
G1 X78.194 Y128.305 E.41711
G1 X78.074 Y128.091 E.00769
G1 X77.881 Y127.539 E.01833
G1 X77.776 Y127.093 E.01437
G1 X77.776 Y124.68 E.07566
G1 X77.776 Y119.933 F9000
G1 F1200
G1 X77.776 Y115.431 E.14116
;WIPE_START
G1 F7200
G1 X77.776 Y118.799 E-.8
;WIPE_END
G1 X87.922 Y116.715 F9000
G1 E.8 F1800
;TYPE:Perimeter
;WIDTH:0.419999
G1 F1200
G1 X88.058 Y116.696 E.00431
G1 X88.319 Y116.579 E.00897
G1 X88.583 Y116.323 E.01153
G1 X88.722 Y116.01 E.01074
G1 X88.749 Y115.788 E.00701
G1 X88.737 Y104.878 E.34208
G1 X88.642 Y104.588 E.00957
G1 X88.385 Y104.282 E.01253
G1 X88.061 Y104.118 E.01139
G1 X87.806 Y104.083 E.00807
G1 X86.249 Y104.083 E.04882
G1 X86.249 Y90.471 E.42679
G1 X127.121 Y90.471 E1.28151
G1 X127.121 Y130.342 E1.25013
G1 X86.249 Y130.342 E1.28151
G1 X86.249 Y116.73 E.42679
G1 X87.863 Y116.723 E.05061
G1 X87.864 Y116.346 F9000
G1 F1200
G1 X87.957 Y116.333 E.00294
G1 X88.197 Y116.197 E.00865
G1 X88.317 Y116.031 E.00642
G1 X88.372 Y115.788 E.00781
G1 X88.365 Y104.937 E.34022
G1 X88.277 Y104.711 E.0076
G1 X88.065 Y104.523 E.00888
G1 X87.806 Y104.46 E.00836
G1 X85.872 Y104.46 E.06064
G1 X85.872 Y90.094 E.45044
G1 X127.498 Y90.094 E1.30515
G1 X127.498 Y130.72 E1.2738
G1 X85.872 Y130.72 E1.30515
G1 X85.872 Y116.353 E.45047
G1 X87.805 Y116.353 E.06061
G1 X87.806 Y115.976 F9000
;TYPE:External perimeter
G1 F1200
G1 X87.937 Y115.924 E.00442
G1 X87.995 Y115.788 E.00464
G1 X87.995 Y105.026 E.33743
G1 X87.95 Y104.904 E.00408
G1 X87.806 Y104.837 E.00498
G1 X85.495 Y104.837 E.07246
G1 X85.495 Y89.717 E.47408
G1 X127.875 Y89.717 E1.32879
G1 X127.875 Y131.097 E1.29744
G1 X85.495 Y131.097 E1.32879
G1 X85.495 Y115.976 E.47411
G1 X87.746 Y115.976 E.07058
G1 X87.94 Y116.02 F9000
;WIPE_START
G1 F7200
G1 X87.937 Y115.924 E-.04701
G1 X87.995 Y115.788 E-.03511
G1 X87.995 Y112.765 E-.71788
;WIPE_END
G1 X116.422 Y97.068 F9000
G1 E.8 F1800
;TYPE:Perimeter
G1 F1200
G1 X116.63 Y96.982 E.00706
G1 X117.251 Y96.858 E.01986
G1 X117.619 Y96.858 E.01154
G1 X118.24 Y96.982 E.01986
G1 X118.58 Y97.123 E.01154
G1 X119.107 Y97.475 E.01987
G1 X119.367 Y97.735 E.01153
G1 X119.719 Y98.262 E.01987
G1 X119.86 Y98.601 E.01151
G1 X119.983 Y99.223 E.01988
G1 X119.983 Y99.591 E.01154
G1 X119.86 Y100.212 E.01985
G1 X119.719 Y100.552 E.01154
G1 X119.367 Y101.079 E.01987
G1 X119.107 Y101.339 E.01153
G1 X118.58 Y101.691 E.01987
G1 X118.24 Y101.831 E.01153
G1 X117.619 Y101.955 E.01986
G1 X117.251 Y101.955 E.01154
G1 X116.63 Y101.831 E.01986
G1 X116.29 Y101.691 E.01153
G1 X115.763 Y101.339 E.01987
G1 X115.503 Y101.079 E.01153
G1 X115.151 Y100.552 E.01987
G1 X115.01 Y100.212 E.01154
G1 X114.887 Y99.591 E.01985
G1 X114.887 Y99.223 E.01154
G1 X115.01 Y98.601 E.01988
G1 X115.151 Y98.262 E.01151
G1 X115.503 Y97.735 E.01987
G1 X115.763 Y97.475 E.01153
G1 X116.29 Y97.123 E.01987
G1 X116.366 Y97.091 E.00259
G1 X116.565 Y97.409 F9000
G1 F1200
G1 X116.703 Y97.352 E.00468
G1 X117.325 Y97.228 E.01989
G1 X117.545 Y97.228 E.0069
G1 X118.167 Y97.352 E.01989
G1 X118.371 Y97.436 E.00692
G1 X118.897 Y97.788 E.01984
G1 X119.053 Y97.944 E.00692
G1 X119.405 Y98.471 E.01987
G1 X119.49 Y98.675 E.00693
G1 X119.614 Y99.296 E.01986
G1 X119.614 Y99.517 E.00693
G1 X119.49 Y100.138 E.01986
G1 X119.405 Y100.342 E.00693
G1 X119.053 Y100.869 E.01987
G1 X118.897 Y101.025 E.00692
G1 X118.371 Y101.377 E.01984
G1 X118.167 Y101.462 E.00693
G1 X117.545 Y101.585 E.01988
G1 X117.325 Y101.585 E.0069
G1 X116.703 Y101.462 E.01988
G1 X116.499 Y101.377 E.00693
G1 X115.972 Y101.025 E.01987
G1 X115.816 Y100.869 E.00692
G1 X115.464 Y100.342 E.01987
G1 X115.38 Y100.138 E.00692
G1 X115.256 Y99.517 E.01986
G1 X115.256 Y99.296 E.00693
G1 X115.38 Y98.675 E.01986
G1 X115.464 Y98.471 E.00692
G1 X115.816 Y97.944 E.01987
G1 X115.972 Y97.788 E.00692
G1 X116.51 Y97.432 E.02023
G1 X116.709 Y97.75 F9000
;TYPE:External perimeter
G1 F1200
G1 X117.398 Y97.598 E.02212
G1 X118.093 Y97.722 E.02214
G1 X118.688 Y98.102 E.02214
G1 X119.092 Y98.68 E.02211
G1 X119.244 Y99.37 E.02215
G1 X119.12 Y100.065 E.02214
G1 X118.74 Y100.66 E.02214
G1 X118.161 Y101.064 E.02214
G1 X117.472 Y101.215 E.02212
G1 X116.777 Y101.092 E.02213
G1 X116.182 Y100.712 E.02214
G1 X115.778 Y100.133 E.02214
G1 X115.626 Y99.443 E.02215
G1 X115.75 Y98.748 E.02214
G1 X116.13 Y98.154 E.02211
G1 X116.66 Y97.784 E.02027
G1 X116.753 Y97.352 F9000
;WIPE_START
G1 F7200
G1 X117.398 Y97.598 E-.18076
G1 X118.093 Y97.722 E-.16767
G1 X118.688 Y98.102 E-.16767
G1 X119.092 Y98.68 E-.16748
G1 X119.197 Y99.159 E-.11642
;WIPE_END
G1 X117.394 Y118.358 F9000
G1 E.8 F1800
;TYPE:Perimeter
G1 F1200
G1 X117.619 Y118.358 E.00705
G1 X118.24 Y118.482 E.01986
G1 X118.58 Y118.623 E.01154
G1 X119.107 Y118.975 E.01987
G1 X119.367 Y119.235 E.01153
G1 X119.719 Y119.762 E.01987
G1 X119.86 Y120.101 E.01151
G1 X119.983 Y120.723 E.01988
G1 X119.983 Y121.091 E.01154
G1 X119.86 Y121.712 E.01985
G1 X119.719 Y122.052 E.01154
G1 X119.367 Y122.579 E.01987
G1 X119.107 Y122.839 E.01153
G1 X118.58 Y123.191 E.01987
G1 X118.24 Y123.331 E.01153
G1 X117.619 Y123.455 E.01986
G1 X117.251 Y123.455 E.01154
G1 X116.63 Y123.331 E.01986
G1 X116.29 Y123.191 E.01153
G1 X115.763 Y122.839 E.01987
G1 X115.503 Y122.579 E.01153
G1 X115.151 Y122.052 E.01987
G1 X115.01 Y121.712 E.01154
G1 X114.887 Y121.091 E.01985
G1 X114.887 Y120.723 E.01154
G1 X115.01 Y120.101 E.01988
G1 X115.151 Y119.761 E.01154
G1 X115.533 Y119.192 E.02149
G1 X115.763 Y118.975 E.00991
G1 X116.29 Y118.623 E.01987
G1 X116.63 Y118.482 E.01154
G1 X117.251 Y118.358 E.01986
G1 X117.334 Y118.358 E.0026
G1 X117.396 Y118.728 F9000
G1 F1200
G1 X117.545 Y118.728 E.00467
G1 X118.167 Y118.852 E.01989
G1 X118.371 Y118.936 E.00692
G1 X118.897 Y119.288 E.01984
G1 X119.053 Y119.444 E.00692
G1 X119.405 Y119.971 E.01987
G1 X119.49 Y120.175 E.00693
G1 X119.614 Y120.796 E.01986
G1 X119.614 Y121.017 E.00693
G1 X119.49 Y121.638 E.01986
G1 X119.405 Y121.842 E.00693
G1 X119.053 Y122.369 E.01987
G1 X118.897 Y122.525 E.00692
G1 X118.371 Y122.877 E.01984
G1 X118.167 Y122.962 E.00693
G1 X117.545 Y123.085 E.01988
G1 X117.325 Y123.085 E.0069
G1 X116.703 Y122.962 E.01988
G1 X116.499 Y122.877 E.00693
G1 X115.972 Y122.525 E.01987
G1 X115.816 Y122.369 E.00692
G1 X115.464 Y121.842 E.01987
G1 X115.38 Y121.638 E.00692
G1 X115.256 Y121.017 E.01986
G1 X115.256 Y120.796 E.00693
G1 X115.38 Y120.175 E.01986
G1 X115.464 Y119.971 E.00692
G1 X115.834 Y119.419 E.02084
G1 X115.972 Y119.288 E.00597
G1 X116.499 Y118.936 E.01987
G1 X116.703 Y118.852 E.00692
G1 X117.336 Y118.728 E.02022
G1 X117.398 Y119.098 F9000
;TYPE:External perimeter
G1 F1200
G1 X118.093 Y119.222 E.02214
G1 X118.688 Y119.602 E.02214
G1 X119.092 Y120.18 E.02211
G1 X119.244 Y120.87 E.02215
G1 X119.12 Y121.565 E.02214
G1 X118.74 Y122.16 E.02214
G1 X118.161 Y122.564 E.02214
G1 X117.472 Y122.715 E.02212
G1 X116.777 Y122.592 E.02213
G1 X116.182 Y122.212 E.02214
G1 X115.778 Y121.633 E.02214
G1 X115.626 Y120.943 E.02215
G1 X115.75 Y120.248 E.02214
G1 X116.136 Y119.645 E.02245
G1 X116.709 Y119.25 E.02182
G1 X117.34 Y119.111 E.02026
G1 X117.592 Y118.748 F9000
;WIPE_START
G1 F7200
G1 X118.093 Y119.222 E-.18077
G1 X118.688 Y119.602 E-.16767
G1 X119.092 Y120.18 E-.16748
G1 X119.244 Y120.87 E-.1678
G1 X119.158 Y121.352 E-.11628
;WIPE_END
G1 X94.402 Y118.881 F9000
G1 E.8 F1800
;TYPE:Perimeter
G1 F1200
G1 X94.906 Y118.556 E.0188
G1 X95.751 Y118.358 E.02721
G1 X96.119 Y118.358 E.01154
G1 X96.74 Y118.482 E.01986
G1 X97.08 Y118.623 E.01154
G1 X97.607 Y118.975 E.01987
G1 X97.867 Y119.235 E.01153
G1 X98.219 Y119.762 E.01987
G1 X98.36 Y120.101 E.01151
G1 X98.483 Y120.723 E.01988
G1 X98.483 Y121.091 E.01154
G1 X98.36 Y121.712 E.01985
G1 X98.219 Y122.052 E.01154
G1 X97.867 Y122.579 E.01987
G1 X97.607 Y122.839 E.01153
G1 X97.08 Y123.191 E.01987
G1 X96.74 Y123.331 E.01153
G1 X96.119 Y123.455 E.01986
G1 X95.751 Y123.455 E.01154
G1 X95.13 Y123.331 E.01986
G1 X94.79 Y123.191 E.01153
G1 X94.263 Y122.839 E.01987
G1 X94.003 Y122.579 E.01153
G1 X93.651 Y122.052 E.01987
G1 X93.51 Y121.712 E.01154
G1 X93.387 Y121.091 E.01985
G1 X93.387 Y120.723 E.01154
G1 X93.51 Y120.101 E.01988
G1 X93.651 Y119.762 E.01151
G1 X94.003 Y119.235 E.01987
G1 X94.263 Y118.975 E.01153
G1 X94.352 Y118.915 E.00337
G1 X94.817 Y119.058 F9000
G1 F1200
