; generated by PrusaSlicer 2.6.0+win64 on 2024-01-15 at 21:58:35 UTC

; 

; external perimeters extrusion width = 0.42mm
; perimeters extrusion width = 0.44mm
; infill extrusion width = 0.44mm
; solid infill extrusion width = 0.44mm
; top infill extrusion width = 0.40mm
; support material extrusion width = 0.36mm
; first layer extrusion width = 0.42mm

M201 X500 Y500 Z100 E5000 ; sets maximum accelerations, mm/sec^2
M203 X500 Y500 Z10 E60 ; sets maximum feedrates, mm / sec
M204 S500 T1000 ; sets acceleration (S) and retract acceleration (R), mm/sec^2
M205 X8.00 Y8.00 Z0.40 E5.00 ; sets the jerk limits, mm/sec
M205 S0 T0 ; sets the minimum extruding and travel feed rate, mm/sec
;TYPE:Custom
G90 ; use absolute coordinates
M83 ; extruder relative mode
M104 S150 ; set temporary nozzle temp to prevent oozing during homing
M140 S60 ; set final bed temp
G4 S30 ; allow partial nozzle warmup
G28 ; home all axis and restore leveling
G1 Z50 F240
G1 X2.0 Y10 F3000
M104 S215 ; set final nozzle temp
M190 S60 ; wait for bed temp to stabilize
M109 S215 ; wait for nozzle temp to stabilize
G1 Z0.28 F240
G92 E0
G1 X2.0 Y140 E10 F1500 ; prime the nozzle
G1 X2.3 Y140 F5000
G92 E0
G1 X2.3 Y10 E10 F1200 ; prime the nozzle
G92 E0
G21 ; set units to millimeters
G90 ; use absolute coordinates
M83 ; use relative distances for extrusion
; Filament gcode
M107
;LAYER_CHANGE
;Z:0.2
;HEIGHT:0.2
;BEFORE_LAYER_CHANGE
G92 E0
;0.2


G1 E-.8 F1800
G1 Z.2 F9000
;AFTER_LAYER_CHANGE
;0.2
G1 X86.785 Y58.944
G1 E.8 F1800
M204 S500
;TYPE:Skirt/Brim
;WIDTH:0.42
G1 F1200
G1 X88.453 Y57.416 E.07093
G1 X148.214 Y32.171 E2.03409
G1 X150.093 Y31.566 E.06189
G1 X151.261 Y31.372 E.03712
G1 X152.33 Y31.326 E.03355
G1 X153.556 Y31.372 E.03847
G1 X155.265 Y31.704 E.05459
G1 X156.895 Y32.312 E.05455
G1 X158.403 Y33.181 E.05457
G1 X159.747 Y34.286 E.05455
G1 X160.892 Y35.597 E.05458
G1 X161.805 Y37.078 E.05455
G1 X162.461 Y38.69 E.05457
G1 X162.826 Y40.222 E.04938
G1 X170.966 Y101.547 E1.93967
G1 X171.083 Y102.874 E.04177
G1 X170.894 Y105.153 E.0717
G1 X158.043 Y156.349 E1.65501
G1 X157.275 Y157.789 E.05117
G1 X155.923 Y158.7 E.05112
G1 X154.768 Y158.904 E.03677
G1 X89.768 Y158.904 E2.03803
G1 X88.185 Y158.51 E.05115
G1 X86.971 Y157.42 E.05116
G1 X86.391 Y155.527 E.06208
G1 X86.391 Y60.527 E2.97866
G1 X86.77 Y59.002 E.04927
; printing object graber thingie.stl id:0 copy 0
;WIPE_START
G1 F7200
G1 X88.453 Y57.416 E-.54923
G1 X89.426 Y57.005 E-.25077
;WIPE_END
G1 X152.33 Y34.703 F9000
G1 E.8 F1800
;TYPE:Support material
G1 F1200
G1 X153 Y34.703 E.02101
G1 X154.168 Y34.898 E.03713
G1 X155.287 Y35.282 E.03709
G1 X156.329 Y35.846 E.03715
G1 X157.263 Y36.573 E.03711
G1 X158.064 Y37.444 E.0371
G1 X158.712 Y38.435 E.03713
G1 X158.922 Y38.913 E.01637
G1 X159.187 Y39.519 E.02074
G1 X159.478 Y40.667 E.03713
G1 X159.576 Y41.846 E.03709
G1 X159.478 Y43.026 E.03713
G1 X159.188 Y44.174 E.03713
G1 X158.712 Y45.258 E.03712
G1 X158.065 Y46.249 E.03711
G1 X157.614 Y46.738 E.02086
G1 X157.263 Y47.12 E.01627
G1 X156.329 Y47.847 E.03711
G1 X155.288 Y48.411 E.03712
G1 X154.168 Y48.795 E.03712
G1 X153 Y48.99 E.03713
G1 X151.816 Y48.99 E.03712
G1 X150.648 Y48.796 E.03712
G1 X150.009 Y48.576 E.02119
G1 X149.528 Y48.411 E.01594
G1 X148.487 Y47.848 E.03711
G1 X147.553 Y47.121 E.03711
G1 X146.751 Y46.25 E.03712
G1 X146.103 Y45.259 E.03713
G1 X145.83 Y44.635 E.02136
G1 X145.628 Y44.174 E.01578
G1 X145.337 Y43.026 E.03713
G1 X145.239 Y41.846 E.03713
G1 X145.337 Y40.666 E.03713
G1 X145.628 Y39.519 E.0371
G1 X145.83 Y39.057 E.01581
G1 X146.103 Y38.434 E.02133
G1 X146.751 Y37.443 E.03713
G1 X147.553 Y36.572 E.03712
G1 X148.487 Y35.845 E.03711
G1 X149.529 Y35.282 E.03714
G1 X150.648 Y34.897 E.0371
G1 X151.816 Y34.703 E.03712
G1 X152.273 Y34.703 E.01433
G1 X159.138 Y43.679 F9000
G1 F1200
G1 X159.138 Y40.705 E.09325
G1 X158.865 Y39.63 E.03478
G1 X158.719 Y39.295 E.01146
G1 X158.719 Y44.398 E.16
G1 X158.413 Y45.096 E.0239
G1 X158.3 Y45.269 E.00648
G1 X158.3 Y38.424 E.21462
G1 X157.881 Y37.783 E.02401
G1 X157.881 Y45.91 E.25482
G1 X157.796 Y46.04 E.00487
G1 X157.462 Y46.403 E.01547
G1 X157.462 Y37.29 E.28573
G1 X157.043 Y36.835 E.01939
G1 X157.043 Y46.858 E.31426
G1 X156.624 Y47.188 E.01672
G1 X156.624 Y36.506 E.33493
G1 X156.205 Y36.179 E.01666
G1 X156.205 Y47.514 E.3554
G1 X155.786 Y47.755 E.01516
G1 X155.786 Y35.938 E.37051
G1 X155.367 Y35.711 E.01494
G1 X155.367 Y47.982 E.38475
G1 X155.151 Y48.099 E.0077
G1 X154.948 Y48.169 E.00673
G1 X154.948 Y35.524 E.39648
G1 X154.529 Y35.38 E.01389
G1 X154.529 Y48.313 E.40551
G1 X154.11 Y48.456 E.01388
G1 X154.11 Y35.237 E.41447
G1 X153.691 Y35.162 E.01335
G1 X153.691 Y48.531 E.41918
G1 X153.272 Y48.601 E.01332
G1 X153.272 Y35.092 E.42357
G1 X152.972 Y35.042 E.00954
G1 X152.853 Y35.042 E.00373
G1 X152.853 Y48.651 E.4267
G1 X152.434 Y48.651 E.01314
G1 X152.434 Y35.042 E.4267
G1 X152.015 Y35.042 E.01314
G1 X152.015 Y48.651 E.4267
G1 X151.844 Y48.651 E.00536
G1 X151.596 Y48.61 E.00788
G1 X151.596 Y35.083 E.42413
G1 X151.177 Y35.153 E.01332
G1 X151.177 Y48.54 E.41974
G1 X150.758 Y48.47 E.01332
G1 X150.758 Y35.223 E.41535
G1 X150.339 Y35.362 E.01384
G1 X150.339 Y48.331 E.40663
G1 X149.92 Y48.187 E.01389
G1 X149.92 Y35.506 E.3976
G1 X149.665 Y35.594 E.00846
G1 X149.501 Y35.682 E.00584
G1 X149.501 Y48.011 E.38657
G1 X149.082 Y47.784 E.01494
G1 X149.082 Y35.909 E.37233
G1 X148.663 Y36.138 E.01497
G1 X148.663 Y47.555 E.35797
G1 X148.244 Y47.229 E.01665
G1 X148.244 Y36.464 E.33753
G1 X147.825 Y36.79 E.01665
G1 X147.825 Y46.903 E.31709
G1 X147.406 Y46.461 E.0191
G1 X147.406 Y37.232 E.28937
G1 X146.987 Y37.702 E.01974
G1 X146.987 Y45.991 E.2599
G1 X146.568 Y45.35 E.02401
G1 X146.568 Y38.343 E.2197
G1 X146.403 Y38.596 E.00947
G1 X146.149 Y39.174 E.0198
G1 X146.149 Y44.519 E.16759
G1 X145.95 Y44.064 E.01557
G1 X145.73 Y43.198 E.02802
G1 X145.73 Y39.804 E.10642
;WIPE_START
G1 F7200
G1 X145.73 Y43.172 E-.8
;WIPE_END
G1 X161.613 Y96.31 F9000
G1 E.8 F1800
G1 F1200
G1 X162.254 Y96.392 E.02026
G1 X163.377 Y96.736 E.03683
G1 X164.425 Y97.265 E.03681
G1 X165.369 Y97.964 E.03683
G1 X166.182 Y98.812 E.03683
G1 X166.839 Y99.785 E.03681
G1 X167.323 Y100.855 E.03682
G1 X167.462 Y101.391 E.01736
G1 X167.618 Y101.991 E.01944
G1 X167.718 Y103.161 E.03682
G1 X167.618 Y104.331 E.03682
G1 X167.323 Y105.467 E.0368
G1 X166.839 Y106.537 E.03682
G1 X166.182 Y107.51 E.03681
G1 X165.37 Y108.358 E.03681
G1 X164.858 Y108.737 E.01997
G1 X164.425 Y109.057 E.01688
G1 X163.377 Y109.586 E.03681
G1 X162.254 Y109.93 E.03683
G1 X161.089 Y110.079 E.03683
G1 X159.916 Y110.03 E.03681
G1 X158.767 Y109.783 E.03685
G1 X157.677 Y109.345 E.03683
G1 X156.677 Y108.729 E.03683
G1 X155.795 Y107.954 E.03681
G1 X155.23 Y107.254 E.02821
G1 X155.23 Y99.068 E.25667
G1 X155.795 Y98.368 E.02821
G1 X156.677 Y97.593 E.03681
G1 X157.677 Y96.977 E.03683
G1 X158.768 Y96.539 E.03686
G1 X159.916 Y96.292 E.03682
G1 X161.089 Y96.243 E.03681
G1 X161.557 Y96.303 E.01479
G1 X167.098 Y105.552 F9000
G1 F1200
G1 X167.098 Y101.34 E.13206
G1 X167.001 Y100.968 E.01205
G1 X166.679 Y100.255 E.02453
G1 X166.679 Y106.067 E.18223
G1 X166.542 Y106.371 E.01045
G1 X166.26 Y106.788 E.01578
G1 X166.26 Y99.534 E.22744
G1 X165.917 Y99.026 E.01922
G1 X165.841 Y98.947 E.00344
G1 X165.841 Y107.375 E.26425
G1 X165.422 Y107.812 E.01898
G1 X165.422 Y98.51 E.29166
G1 X165.144 Y98.219 E.01262
G1 X165.003 Y98.115 E.00549
G1 X165.003 Y108.207 E.31643
G1 X164.584 Y108.517 E.01634
G1 X164.584 Y97.805 E.33587
G1 X164.247 Y97.555 E.01316
G1 X164.165 Y97.514 E.00287
G1 X164.165 Y108.808 E.35412
G1 X163.746 Y109.019 E.01471
G1 X163.746 Y97.303 E.36735
G1 X163.327 Y97.092 E.01471
G1 X163.327 Y109.231 E.38061
G1 X162.908 Y109.374 E.01388
G1 X162.908 Y96.948 E.38961
G1 X162.489 Y96.819 E.01375
G1 X162.489 Y109.503 E.3977
G1 X162.182 Y109.597 E.01007
G1 X162.07 Y109.611 E.00354
G1 X162.07 Y96.711 E.40447
G1 X161.651 Y96.657 E.01325
G1 X161.651 Y109.665 E.40786
G1 X161.233 Y109.719 E.01322
G1 X161.233 Y96.603 E.41124
G1 X161.075 Y96.583 E.00499
G1 X160.814 Y96.594 E.00819
G1 X160.814 Y109.728 E.41181
G1 X160.395 Y109.71 E.01315
G1 X160.395 Y96.612 E.41068
G1 X159.976 Y96.629 E.01315
G1 X159.976 Y109.693 E.40961
G1 X159.557 Y109.605 E.01342
G1 X159.557 Y96.717 E.40409
G1 X159.138 Y96.807 E.01344
G1 X159.138 Y109.515 E.39845
G1 X158.867 Y109.457 E.00869
G1 X158.719 Y109.397 E.00501
G1 X158.719 Y96.925 E.39105
G1 X158.3 Y97.093 E.01415
G1 X158.3 Y109.229 E.38052
G1 X157.881 Y109.061 E.01415
G1 X157.881 Y97.261 E.36998
G1 X157.462 Y97.508 E.01525
G1 X157.462 Y108.814 E.35449
G1 X157.043 Y108.556 E.01543
G1 X157.043 Y97.766 E.33831
G1 X156.879 Y97.866 E.00602
G1 X156.624 Y98.091 E.01066
G1 X156.624 Y108.231 E.31793
G1 X156.205 Y107.862 E.01751
G1 X156.205 Y98.46 E.29479
G1 X156.041 Y98.604 E.00684
G1 X155.786 Y98.92 E.01273
G1 X155.786 Y107.672 E.27441
;WIPE_START
G1 F7200
G1 X155.786 Y104.304 E-.8
;WIPE_END
G1 X117.493 Y81.354 F9000
G1 E.8 F1800
;TYPE:Perimeter
;WIDTH:0.419999
G1 F1200
G1 X117.57 Y81.301 E.00293
G1 X117.766 Y80.995 E.01139
G1 X117.832 Y80.648 E.01107
G1 X117.832 Y61.591 E.59752
G1 X147.889 Y61.591 E.94241
G1 X148.06 Y61.576 E.00538
G1 X148.125 Y61.497 E.00321
G1 X153.703 Y61.497 E.17489
G1 X153.703 Y154.463 E2.91488
G1 X90.832 Y154.463 E1.97127
G1 X90.832 Y61.591 E2.91193
G1 X95.703 Y61.591 E.15273
G1 X95.703 Y80.648 E.59752
G1 X95.718 Y80.811 E.00513
G1 X95.814 Y81.092 E.00931
G1 X96.081 Y81.403 E.01285
G1 X96.382 Y81.553 E.01054
G1 X96.646 Y81.591 E.00836
G1 X116.889 Y81.591 E.6347
G1 X117.265 Y81.513 E.01204
G1 X117.444 Y81.388 E.00685
G1 X117.26 Y81.054 F9000
G1 F1200
G1 X117.386 Y80.918 E.00581
G1 X117.455 Y80.648 E.00874
G1 X117.455 Y61.214 E.60934
G1 X147.889 Y61.214 E.95424
G1 X147.991 Y61.205 E.00321
G1 X148.062 Y61.12 E.00347
G1 X154.081 Y61.12 E.18872
G1 X154.081 Y154.84 E2.93852
G1 X90.455 Y154.84 E1.99495
G1 X90.455 Y61.214 E2.93557
G1 X96.081 Y61.214 E.1764
G1 X96.081 Y80.648 E.60934
G1 X96.089 Y80.746 E.00308
G1 X96.22 Y81.02 E.00952
G1 X96.398 Y81.157 E.00704
G1 X96.646 Y81.214 E.00798
G1 X116.889 Y81.214 E.6347
G1 X117.192 Y81.126 E.00989
G1 X117.219 Y81.098 E.00122
G1 X117.011 Y80.793 F9000
;TYPE:External perimeter
G1 F1200
G1 X117.078 Y80.648 E.00501
G1 X117.078 Y60.837 E.62116
G1 X147.889 Y60.837 E.96606
G1 X147.999 Y60.743 E.00454
G1 X154.458 Y60.743 E.20252
G1 X154.458 Y155.217 E2.96216
G1 X90.078 Y155.217 E2.01859
G1 X90.078 Y60.837 E2.95921
G1 X96.458 Y60.837 E.20004
G1 X96.458 Y80.648 E.62116
G1 X96.504 Y80.772 E.00415
G1 X96.646 Y80.837 E.0049
G1 X116.889 Y80.837 E.6347
G1 X116.954 Y80.813 E.00217
G1 X117.163 Y80.838 F9000
;WIPE_START
G1 F7200
G1 X117.078 Y80.648 E-.04902
G1 X117.078 Y77.486 E-.75098
;WIPE_END
G1 X152.819 Y61.617 F9000
G1 E.8 F1800
;TYPE:Solid infill
;WIDTH:0.420603
G1 F1200
G1 X153.413 Y62.211 E.02638
G1 X153.413 Y62.745 E.01677
G1 X152.455 Y61.787 E.04255
G1 X151.921 Y61.787 E.01677
G1 X153.413 Y63.279 E.06626
G1 X153.413 Y63.814 E.0168
G1 X151.387 Y61.787 E.09
G1 X150.852 Y61.787 E.0168
G1 X153.413 Y64.348 E.11374
G1 X153.413 Y64.882 E.01677
G1 X150.318 Y61.787 E.13746
G1 X149.784 Y61.787 E.01677
G1 X153.413 Y65.416 E.16117
G1 X153.413 Y65.95 E.01677
G1 X149.25 Y61.787 E.18489
G1 X148.716 Y61.787 E.01677
G1 X153.413 Y66.484 E.20861
G1 X153.413 Y67.018 E.01677
G1 X148.194 Y61.799 E.23179
G1 X148.145 Y61.859 E.00243
G1 X147.742 Y61.882 E.01268
G1 X153.413 Y67.552 E.25184
G1 X153.413 Y68.087 E.0168
G1 X147.208 Y61.882 E.27558
G1 X146.674 Y61.882 E.01677
G1 X153.413 Y68.621 E.2993
G1 X153.413 Y69.155 E.01677
G1 X146.14 Y61.882 E.32301
G1 X145.606 Y61.882 E.01677
G1 X153.413 Y69.689 E.34673
G1 X153.413 Y70.223 E.01677
G1 X145.072 Y61.882 E.37045
G1 X144.537 Y61.882 E.0168
G1 X153.413 Y70.757 E.39418
G1 X153.413 Y71.291 E.01677
G1 X144.003 Y61.882 E.4179
G1 X143.469 Y61.882 E.01677
G1 X153.413 Y71.825 E.44162
G1 X153.413 Y72.36 E.0168
G1 X142.935 Y61.882 E.46536
G1 X142.401 Y61.882 E.01677
G1 X153.413 Y72.894 E.48907
G1 X153.413 Y73.428 E.01677
G1 X141.867 Y61.882 E.51279
G1 X141.333 Y61.882 E.01677
G1 X153.413 Y73.962 E.5365
G1 X153.413 Y74.496 E.01677
G1 X140.799 Y61.882 E.56022
G1 X140.264 Y61.882 E.0168
G1 X153.413 Y75.03 E.58396
G1 X153.413 Y75.564 E.01677
G1 X139.73 Y61.882 E.60768
G1 X139.196 Y61.882 E.01677
G1 X153.413 Y76.098 E.63139
G1 X153.413 Y76.633 E.0168
G1 X138.662 Y61.882 E.65513
G1 X138.128 Y61.882 E.01677
G1 X153.413 Y77.167 E.67885
G1 X153.413 Y77.701 E.01677
G1 X137.594 Y61.882 E.70256
G1 X137.06 Y61.882 E.01677
G1 X153.413 Y78.235 E.72628
G1 X153.413 Y78.769 E.01677
G1 X136.526 Y61.882 E.75
G1 X135.991 Y61.882 E.0168
G1 X153.413 Y79.303 E.77373
G1 X153.413 Y79.837 E.01677
G1 X135.457 Y61.882 E.79745
G1 X134.923 Y61.882 E.01677
G1 X153.413 Y80.371 E.82117
G1 X153.413 Y80.906 E.0168
G1 X134.389 Y61.882 E.84491
G1 X133.855 Y61.882 E.01677
G1 X153.413 Y81.44 E.86862
G1 X153.413 Y81.974 E.01677
G1 X133.321 Y61.882 E.89234
G1 X132.787 Y61.882 E.01677
G1 X153.413 Y82.508 E.91605
G1 X153.413 Y83.042 E.01677
G1 X132.253 Y61.882 E.93977
G1 X131.718 Y61.882 E.0168
G1 X153.413 Y83.576 E.96351
G1 X153.413 Y84.11 E.01677
G1 X131.184 Y61.882 E.98723
G1 X130.65 Y61.882 E.01677
G1 X153.413 Y84.644 E1.01094
G1 X153.413 Y85.179 E.0168
G1 X130.116 Y61.882 E1.03468
G1 X129.582 Y61.882 E.01677
G1 X153.413 Y85.713 E1.0584
G1 X153.413 Y86.247 E.01677
G1 X129.048 Y61.882 E1.08211
G1 X128.514 Y61.882 E.01677
G1 X153.413 Y86.781 E1.10583
G1 X153.413 Y87.315 E.01677
G1 X127.98 Y61.882 E1.12955
G1 X127.445 Y61.882 E.0168
G1 X153.413 Y87.849 E1.15328
G1 X153.413 Y88.383 E.01677
G1 X126.911 Y61.882 E1.177
G1 X126.377 Y61.882 E.01677
G1 X153.413 Y88.917 E1.20072
G1 X153.413 Y89.452 E.0168
G1 X125.843 Y61.882 E1.22446
G1 X125.309 Y61.882 E.01677
G1 X153.413 Y89.986 E1.24817
G1 X153.413 Y90.52 E.01677
G1 X124.775 Y61.882 E1.27189
G1 X124.241 Y61.882 E.01677
G1 X153.413 Y91.054 E1.29561
G1 X153.413 Y91.588 E.01677
G1 X123.707 Y61.882 E1.31932
G1 X123.172 Y61.882 E.0168
G1 X153.413 Y92.122 E1.34306
G1 X153.413 Y92.656 E.01677
G1 X122.638 Y61.882 E1.36678
G1 X122.104 Y61.882 E.01677
G1 X153.413 Y93.19 E1.39049
G1 X153.413 Y93.725 E.0168
G1 X121.57 Y61.882 E1.41423
G1 X121.036 Y61.882 E.01677
G1 X153.413 Y94.259 E1.43795
G1 X153.413 Y94.793 E.01677
G1 X120.502 Y61.882 E1.46166
G1 X119.968 Y61.882 E.01677
G1 X153.413 Y95.327 E1.48538
G1 X153.413 Y95.861 E.01677
G1 X119.434 Y61.882 E1.5091
G1 X118.899 Y61.882 E.0168
G1 X153.413 Y96.395 E1.53284
G1 X153.413 Y96.929 E.01677
G1 X118.365 Y61.882 E1.55655
G1 X118.122 Y61.882 E.00763
G1 X118.122 Y62.172 E.00911
G1 X153.413 Y97.463 E1.56737
G1 X153.413 Y97.998 E.0168
G1 X118.122 Y62.707 E1.56737
G1 X118.122 Y63.241 E.01677
G1 X153.413 Y98.532 E1.56737
G1 X153.413 Y99.066 E.01677
G1 X118.122 Y63.775 E1.56737
G1 X118.122 Y64.309 E.01677
G1 X153.413 Y99.6 E1.56737
G1 X153.413 Y100.134 E.01677
G1 X118.122 Y64.843 E1.56737
G1 X118.122 Y65.377 E.01677
G1 X153.413 Y100.668 E1.56737
G1 X153.413 Y101.202 E.01677
G1 X118.122 Y65.911 E1.56737
G1 X118.122 Y66.445 E.01677
G1 X153.413 Y101.736 E1.56737
G1 X153.413 Y102.271 E.0168
G1 X118.122 Y66.979 E1.56739
G1 X118.122 Y67.513 E.01677
G1 X153.413 Y102.805 E1.56739
G1 X153.413 Y103.339 E.01677
G1 X118.122 Y68.047 E1.56739
G1 X118.122 Y68.582 E.0168
G1 X153.413 Y103.873 E1.56737
G1 X153.413 Y104.407 E.01677
G1 X118.122 Y69.116 E1.56737
G1 X118.122 Y69.65 E.01677
G1 X153.413 Y104.941 E1.56737
G1 X153.413 Y105.475 E.01677
G1 X118.122 Y70.184 E1.56737
G1 X118.122 Y70.718 E.01677
G1 X153.413 Y106.009 E1.56737
G1 X153.413 Y106.544 E.0168
G1 X118.122 Y71.252 E1.56739
G1 X118.122 Y71.786 E.01677
G1 X153.413 Y107.078 E1.56739
G1 X153.413 Y107.612 E.01677
G1 X118.122 Y72.32 E1.56739
G1 X118.122 Y72.854 E.01677
G1 X153.413 Y108.146 E1.56739
G1 X153.413 Y108.68 E.01677
G1 X118.122 Y73.388 E1.56739
G1 X118.122 Y73.923 E.0168
G1 X153.413 Y109.214 E1.56737
G1 X153.413 Y109.748 E.01677
G1 X118.121 Y74.457 E1.56739
G1 X118.121 Y74.991 E.01677
G1 X153.413 Y110.282 E1.56739
G1 X153.413 Y110.817 E.0168
G1 X118.121 Y75.525 E1.56741
G1 X118.121 Y76.059 E.01677
G1 X153.413 Y111.351 E1.56741
G1 X153.413 Y111.885 E.01677
G1 X118.121 Y76.593 E1.56741
