; generated by PrusaSlicer 2.6.0+win64 on 2024-02-05 at 19:49:26 UTC

; 

; external perimeters extrusion width = 0.42mm
; perimeters extrusion width = 0.44mm
; infill extrusion width = 0.44mm
; solid infill extrusion width = 0.44mm
; top infill extrusion width = 0.40mm
; support material extrusion width = 0.36mm
; first layer extrusion width = 0.42mm

M201 X500 Y500 Z100 E5000 ; sets maximum accelerations, mm/sec^2
M203 X500 Y500 Z10 E60 ; sets maximum feedrates, mm / sec
M204 S500 T1000 ; sets acceleration (S) and retract acceleration (R), mm/sec^2
M205 X8.00 Y8.00 Z0.40 E5.00 ; sets the jerk limits, mm/sec
M205 S0 T0 ; sets the minimum extruding and travel feed rate, mm/sec
;TYPE:Custom
G90 ; use absolute coordinates
M83 ; extruder relative mode
M104 S150 ; set temporary nozzle temp to prevent oozing during homing
M140 S60 ; set final bed temp
G4 S30 ; allow partial nozzle warmup
G28 ; home all axis and restore leveling
G1 Z50 F240
G1 X2.0 Y10 F3000
M104 S215 ; set final nozzle temp
M190 S60 ; wait for bed temp to stabilize
M109 S215 ; wait for nozzle temp to stabilize
G1 Z0.28 F240
G92 E0
G1 X2.0 Y140 E10 F1500 ; prime the nozzle
G1 X2.3 Y140 F5000
G92 E0
G1 X2.3 Y10 E10 F1200 ; prime the nozzle
G92 E0
G21 ; set units to millimeters
G90 ; use absolute coordinates
M83 ; use relative distances for extrusion
; Filament gcode
M107
;LAYER_CHANGE
;Z:0.2
;HEIGHT:0.2
;BEFORE_LAYER_CHANGE
G92 E0
;0.2


G1 E-.8 F1800
G1 Z.2 F9000
;AFTER_LAYER_CHANGE
;0.2
G1 X74.517 Y60.917
G1 E.8 F1800
M204 S500
;TYPE:Skirt/Brim
;WIDTH:0.42
G1 F1200
G1 X75.607 Y59.703 E.05116
G1 X77.5 Y59.123 E.06208
G1 X142.5 Y59.123 E2.03803
G1 X144.083 Y59.517 E.05115
G1 X145.297 Y60.607 E.05116
G1 X145.877 Y62.5 E.06208
G1 X145.877 Y157.5 E2.97866
G1 X145.483 Y159.083 E.05115
G1 X144.393 Y160.297 E.05116
G1 X142.5 Y160.877 E.06208
G1 X99.5 Y160.877 E1.34823
G1 X97.917 Y160.483 E.05115
G1 X96.508 Y159.067 E.06263
G1 X74.508 Y117.067 E1.4866
G1 X74.123 Y115.5 E.05059
G1 X74.123 Y62.5 E1.66178
G1 X74.503 Y60.975 E.04928
; printing object graber thingie top 2.stl id:0 copy 0
;WIPE_START
G1 F7200
G1 X75.607 Y59.703 E-.40002
G1 X77.217 Y59.21 E-.39998
;WIPE_END
G1 X78.564 Y63.564 F9000
G1 E.8 F1800
;TYPE:Perimeter
;WIDTH:0.419999
G1 F1200
G1 X141.436 Y63.564 E1.9713
G1 X141.436 Y156.436 E2.91193
G1 X100.564 Y156.436 E1.28151
G1 X100.562 Y115.321 E1.28913
G1 X100.489 Y115.009 E.01005
G1 X100.277 Y114.701 E.01172
G1 X99.976 Y114.505 E.01126
G1 X99.621 Y114.436 E.01134
G1 X78.564 Y114.436 E.66023
G1 X78.564 Y63.624 E1.59317
G1 X78.187 Y63.187 F9000
G1 F1200
G1 X141.813 Y63.187 E1.99495
G1 X141.813 Y156.813 E2.93557
G1 X100.187 Y156.813 E1.30515
G1 X100.186 Y115.344 E1.30023
G1 X100.1 Y115.078 E.00877
G1 X99.895 Y114.883 E.00887
G1 X99.621 Y114.813 E.00887
G1 X78.187 Y114.813 E.67205
G1 X78.187 Y63.247 E1.61681
G1 X77.81 Y62.81 F9000
;TYPE:External perimeter
G1 F1200
G1 X142.19 Y62.81 E2.01859
G1 X142.19 Y157.19 E2.95921
G1 X99.81 Y157.19 E1.32879
G1 X99.81 Y115.379 E1.31095
G1 X99.765 Y115.256 E.00411
G1 X99.621 Y115.19 E.00497
G1 X77.81 Y115.19 E.68387
G1 X77.81 Y62.87 E1.64045
G1 X78.18 Y62.963 F9000
;WIPE_START
G1 F7200
G1 X81.178 Y62.867 E-.8
;WIPE_END
G1 X129.504 Y124.298 F9000
G1 E.8 F1800
;TYPE:Perimeter
G1 F1200
G1 X129.599 Y124.107 E.00669
G1 X130.271 Y123.425 E.03002
G1 X130.567 Y123.225 E.0112
G1 X131.506 Y122.964 E.03056
G1 X131.828 Y122.935 E.01014
G1 X132.807 Y123.181 E.03165
G1 X133.125 Y123.336 E.01109
G1 X133.825 Y124.021 E.03071
G1 X134.009 Y124.282 E.01001
G1 X134.286 Y125.256 E.03175
G1 X134.315 Y125.583 E.01029
G1 X134.069 Y126.557 E.0315
G1 X133.925 Y126.86 E.01052
G1 X133.229 Y127.575 E.03129
G1 X132.911 Y127.784 E.01193
G1 X131.994 Y128.036 E.02982
G1 X131.631 Y128.061 E.01141
G1 X130.693 Y127.819 E.03037
G1 X130.357 Y127.651 E.01178
G1 X129.599 Y126.893 E.03361
G1 X129.431 Y126.557 E.01178
G1 X129.214 Y125.744 E.02638
G1 X129.185 Y125.416 E.01032
G1 X129.196 Y125.334 E.00259
G1 X129.431 Y124.443 E.02889
G1 X129.477 Y124.351 E.00323
G1 X129.84 Y124.461 F9000
G1 F1200
G1 X129.927 Y124.303 E.00566
G1 X130.537 Y123.692 E.02707
G1 X130.763 Y123.554 E.0083
G1 X131.604 Y123.328 E.0273
G1 X131.845 Y123.317 E.00756
G1 X132.709 Y123.546 E.02803
G1 X132.963 Y123.692 E.00919
G1 X133.558 Y124.287 E.02638
G1 X133.704 Y124.541 E.00919
G1 X133.922 Y125.354 E.02639
G1 X133.933 Y125.598 E.00766
G1 X133.704 Y126.459 E.02793
G1 X133.558 Y126.713 E.00919
G1 X132.963 Y127.308 E.02638
G1 X132.709 Y127.454 E.00919
G1 X131.896 Y127.672 E.02639
G1 X131.64 Y127.681 E.00803
G1 X130.791 Y127.454 E.02755
G1 X130.553 Y127.323 E.00852
G1 X129.942 Y126.713 E.02707
G1 X129.807 Y126.496 E.00801
G1 X129.578 Y125.646 E.0276
G1 X129.567 Y125.401 E.00769
G1 X129.811 Y124.513 E.02887
G1 X130.16 Y124.638 F9000
;TYPE:External perimeter
G1 F1200
G1 X130.804 Y123.959 E.02934
G1 X131.701 Y123.692 E.02934
G1 X132.612 Y123.91 E.02937
G1 X133.291 Y124.554 E.02934
G1 X133.558 Y125.451 E.02934
G1 X133.34 Y126.362 E.02937
G1 X132.696 Y127.041 E.02934
G1 X131.799 Y127.308 E.02934
G1 X130.888 Y127.09 E.02937
G1 X130.506 Y126.744 E.01616
G1 X130.164 Y126.374 E.0158
G1 X129.942 Y125.549 E.02679
G1 X129.939 Y125.467 E.00257
G1 X130.144 Y124.696 E.02501
G1 X129.981 Y124.281 F9000
;WIPE_START
G1 F7200
G1 X130.804 Y123.959 E-.23497
G1 X131.701 Y123.692 E-.22227
G1 X132.612 Y123.91 E-.22247
G1 X132.979 Y124.259 E-.12029
;WIPE_END
G1 X134.299 Y146.903 F9000
G1 E.8 F1800
;TYPE:Perimeter
G1 F1200
G1 X134.315 Y147.083 E.00567
G1 X134.069 Y148.057 E.0315
G1 X133.925 Y148.36 E.01052
G1 X133.229 Y149.075 E.03129
G1 X132.968 Y149.259 E.01001
G1 X131.994 Y149.536 E.03175
G1 X131.667 Y149.565 E.01029
G1 X130.693 Y149.319 E.0315
G1 X130.39 Y149.175 E.01052
G1 X129.675 Y148.479 E.03129
G1 X129.466 Y148.161 E.01193
G1 X129.214 Y147.244 E.02982
G1 X129.19 Y146.873 E.01166
G1 X129.431 Y145.943 E.03012
G1 X129.599 Y145.607 E.01178
G1 X130.357 Y144.849 E.03361
G1 X130.693 Y144.681 E.01178
G1 X131.506 Y144.464 E.02638
G1 X131.832 Y144.435 E.01026
G1 X132.807 Y144.681 E.03153
G1 X133.125 Y144.836 E.01109
G1 X133.825 Y145.521 E.03071
G1 X134.009 Y145.782 E.01001
G1 X134.286 Y146.756 E.03175
G1 X134.294 Y146.844 E.00277
G1 X133.926 Y146.937 F9000
G1 F1200
G1 X133.933 Y147.098 E.00505
G1 X133.704 Y147.959 E.02793
G1 X133.558 Y148.213 E.00919
G1 X132.963 Y148.808 E.02638
G1 X132.709 Y148.954 E.00919
G1 X131.896 Y149.172 E.02639
G1 X131.652 Y149.183 E.00766
G1 X130.791 Y148.954 E.02793
G1 X130.537 Y148.808 E.00919
G1 X129.942 Y148.213 E.02638
G1 X129.796 Y147.959 E.00919
G1 X129.578 Y147.146 E.02639
G1 X129.57 Y146.888 E.00809
G1 X129.796 Y146.041 E.02749
G1 X129.927 Y145.803 E.00852
G1 X130.537 Y145.192 E.02707
G1 X130.791 Y145.046 E.00919
G1 X131.604 Y144.828 E.02639
G1 X131.836 Y144.815 E.00729
G1 X132.709 Y145.046 E.02831
G1 X132.963 Y145.192 E.00919
G1 X133.558 Y145.787 E.02638
G1 X133.704 Y146.041 E.00919
G1 X133.923 Y146.877 E.0271
G1 X133.558 Y146.951 F9000
;TYPE:External perimeter
G1 F1200
G1 X133.34 Y147.862 E.02937
G1 X132.696 Y148.541 E.02934
G1 X131.799 Y148.808 E.02934
G1 X130.888 Y148.59 E.02937
G1 X130.209 Y147.946 E.02934
G1 X129.942 Y147.049 E.02934
G1 X130.16 Y146.138 E.02937
G1 X130.506 Y145.756 E.01616
G1 X130.876 Y145.414 E.0158
G1 X131.701 Y145.192 E.02679
G1 X132.612 Y145.41 E.02937
G1 X133.291 Y146.054 E.02934
G1 X133.541 Y146.894 E.02748
G1 X133.91 Y147.142 F9000
;WIPE_START
G1 F7200
G1 X133.34 Y147.862 E-.2348
G1 X132.696 Y148.541 E-.22226
G1 X131.799 Y148.808 E-.22227
G1 X131.305 Y148.69 E-.12067
;WIPE_END
G1 X110.347 Y149.549 F9000
G1 E.8 F1800
;TYPE:Perimeter
G1 F1200
G1 X110.167 Y149.565 E.00567
G1 X109.193 Y149.319 E.0315
G1 X108.89 Y149.175 E.01052
G1 X108.348 Y148.652 E.02362
G1 X108.075 Y148.36 E.01253
G1 X107.931 Y148.057 E.01052
G1 X107.714 Y147.244 E.02638
G1 X107.685 Y146.917 E.01029
G1 X107.931 Y145.943 E.0315
G1 X108.075 Y145.64 E.01052
G1 X108.771 Y144.925 E.03129
G1 X109.089 Y144.716 E.01193
G1 X110.006 Y144.464 E.02982
G1 X110.369 Y144.439 E.01141
G1 X111.307 Y144.681 E.03037
G1 X111.643 Y144.849 E.01178
G1 X112.401 Y145.607 E.03361
G1 X112.569 Y145.943 E.01178
G1 X112.786 Y146.756 E.02638
G1 X112.811 Y147.121 E.01147
G1 X112.569 Y148.057 E.03031
G1 X112.414 Y148.375 E.01109
G1 X111.729 Y149.075 E.03071
G1 X111.468 Y149.259 E.01001
G1 X110.494 Y149.536 E.03175
G1 X110.406 Y149.544 E.00277
G1 X110.313 Y149.176 F9000
G1 F1200
G1 X110.152 Y149.183 E.00505
G1 X109.291 Y148.954 E.02793
G1 X109.037 Y148.808 E.00919
G1 X108.442 Y148.213 E.02638
G1 X108.296 Y147.959 E.00919
G1 X108.078 Y147.146 E.02639
G1 X108.067 Y146.902 E.00766
G1 X108.296 Y146.041 E.02793
G1 X108.442 Y145.787 E.00919
G1 X109.037 Y145.192 E.02638
G1 X109.291 Y145.046 E.00919
G1 X110.104 Y144.828 E.02639
G1 X110.36 Y144.819 E.00803
G1 X111.209 Y145.046 E.02755
G1 X111.447 Y145.177 E.00852
G1 X112.12 Y145.861 E.03009
G1 X112.204 Y146.041 E.00623
G1 X112.422 Y146.854 E.02639
G1 X112.437 Y147.072 E.00685
G1 X112.204 Y147.959 E.02875
G1 X112.058 Y148.213 E.00919
G1 X111.463 Y148.808 E.02638
G1 X111.209 Y148.954 E.00919
G1 X110.373 Y149.173 E.0271
G1 X110.299 Y148.808 F9000
;TYPE:External perimeter
G1 F1200
G1 X109.388 Y148.59 E.02937
G1 X108.881 Y148.119 E.0217
G1 X108.66 Y147.862 E.01063
G1 X108.442 Y147.049 E.02639
G1 X108.66 Y146.138 E.02937
G1 X109.304 Y145.459 E.02934
G1 X110.201 Y145.192 E.02934
G1 X111.112 Y145.41 E.02937
G1 X111.494 Y145.756 E.01616
G1 X111.836 Y146.126 E.0158
G1 X112.058 Y146.951 E.02679
G1 X111.84 Y147.862 E.02937
G1 X111.196 Y148.541 E.02934
G1 X110.356 Y148.791 E.02748
G1 X110.108 Y149.16 F9000
;WIPE_START
G1 F7200
G1 X109.388 Y148.59 E-.2348
G1 X108.881 Y148.119 E-.16435
G1 X108.66 Y147.862 E-.0805
G1 X108.442 Y147.049 E-.19991
G1 X108.56 Y146.556 E-.12044
;WIPE_END
G1 X109.054 Y127.751 F9000
G1 E.8 F1800
;TYPE:Perimeter
G1 F1200
G1 X108.875 Y127.664 E.00624
G1 X108.175 Y126.979 E.03071
G1 X107.991 Y126.718 E.01001
G1 X107.714 Y125.744 E.03175
G1 X107.685 Y125.417 E.01029
G1 X107.931 Y124.443 E.0315
G1 X108.075 Y124.14 E.01052
G1 X108.771 Y123.425 E.03129
G1 X109.089 Y123.216 E.01193
G1 X110.006 Y122.964 E.02982
G1 X110.371 Y122.939 E.01147
G1 X111.307 Y123.181 E.03031
G1 X111.637 Y123.345 E.01155
G1 X112.325 Y124.021 E.03024
G1 X112.529 Y124.326 E.0115
G1 X112.786 Y125.256 E.03025
G1 X112.815 Y125.584 E.01032
G1 X112.569 Y126.557 E.03147
G1 X112.401 Y126.893 E.01178
G1 X111.643 Y127.651 E.03361
G1 X111.307 Y127.819 E.01178
G1 X110.494 Y128.036 E.02638
G1 X110.168 Y128.065 E.01026
G1 X109.193 Y127.819 E.03153
G1 X109.108 Y127.777 E.00297
G1 X109.209 Y127.407 F9000
G1 F1200
G1 X109.037 Y127.308 E.00622
G1 X108.442 Y126.713 E.02638
G1 X108.296 Y126.459 E.00919
G1 X108.078 Y125.646 E.02639
G1 X108.067 Y125.402 E.00766
G1 X108.296 Y124.541 E.02793
G1 X108.442 Y124.287 E.00919
G1 X109.037 Y123.692 E.02638
G1 X109.291 Y123.546 E.00919
G1 X110.104 Y123.328 E.02639
G1 X110.387 Y123.325 E.00887
G1 X111.209 Y123.546 E.02669
G1 X111.448 Y123.678 E.00856
G1 X112.058 Y124.287 E.02703
G1 X112.193 Y124.504 E.00801
G1 X112.422 Y125.354 E.0276
G1 X112.433 Y125.599 E.00769
G1 X112.204 Y126.459 E.0279
G1 X112.073 Y126.697 E.00852
G1 X111.463 Y127.308 E.02707
G1 X111.246 Y127.443 E.00801
G1 X110.396 Y127.672 E.0276
G1 X110.164 Y127.685 E.00729
G1 X109.261 Y127.437 E.02936
G1 X109.388 Y127.09 F9000
;TYPE:External perimeter
G1 F1200
G1 X108.709 Y126.446 E.02934
G1 X108.442 Y125.549 E.02934
G1 X108.66 Y124.638 E.02937
G1 X109.304 Y123.959 E.02934
G1 X110.201 Y123.692 E.02934
G1 X111.112 Y123.91 E.02937
G1 X111.791 Y124.554 E.02934
G1 X112.058 Y125.451 E.02934
G1 X111.84 Y126.362 E.02937
G1 X111.494 Y126.744 E.01616
G1 X111.124 Y127.086 E.0158
G1 X110.299 Y127.308 E.02679
G1 X109.447 Y127.104 E.02747
G1 X109.046 Y127.296 F9000
;WIPE_START
G1 F7200
G1 X108.709 Y126.446 E-.23483
G1 X108.442 Y125.549 E-.22227
G1 X108.66 Y124.638 E-.22247
G1 X109.009 Y124.27 E-.12043
;WIPE_END
G1 X140.553 Y63.685 F9000
G1 E.8 F1800
;TYPE:Solid infill
;WIDTH:0.420051
G1 F1200
G1 X141.145 Y64.278 E.02628
G1 X141.145 Y64.811 E.01671
G1 X140.189 Y63.855 E.0424
G1 X139.656 Y63.855 E.01671
G1 X141.145 Y65.344 E.06603
G1 X141.145 Y65.878 E.01675
G1 X139.122 Y63.855 E.08972
G1 X138.589 Y63.855 E.01671
G1 X141.145 Y66.411 E.11335
G1 X141.145 Y66.944 E.01671
G1 X138.056 Y63.855 E.13699
G1 X137.522 Y63.855 E.01675
G1 X141.145 Y67.478 E.16067
G1 X141.145 Y68.011 E.01671
G1 X136.989 Y63.855 E.18431
G1 X136.456 Y63.855 E.01671
G1 X141.145 Y68.544 E.20795
G1 X141.145 Y69.078 E.01675
G1 X135.922 Y63.855 E.23163
G1 X135.389 Y63.855 E.01671
G1 X141.145 Y69.611 E.25527
G1 X141.145 Y70.144 E.01671
G1 X134.856 Y63.855 E.2789
G1 X134.322 Y63.855 E.01675
G1 X141.145 Y70.678 E.30258
G1 X141.145 Y71.211 E.01671
G1 X133.789 Y63.855 E.32622
G1 X133.256 Y63.855 E.01671
G1 X141.145 Y71.744 E.34986
G1 X141.145 Y72.278 E.01675
G1 X132.722 Y63.855 E.37354
G1 X132.189 Y63.855 E.01671
G1 X141.145 Y72.811 E.39718
G1 X141.145 Y73.344 E.01671
G1 X131.656 Y63.855 E.42082
G1 X131.122 Y63.855 E.01675
G1 X141.145 Y73.878 E.4445
G1 X141.145 Y74.411 E.01671
G1 X130.589 Y63.855 E.46813
G1 X130.056 Y63.855 E.01671
G1 X141.145 Y74.944 E.49177
G1 X141.145 Y75.478 E.01675
G1 X129.522 Y63.855 E.51545
G1 X128.989 Y63.855 E.01671
G1 X141.145 Y76.011 E.53909
G1 X141.145 Y76.544 E.01671
G1 X128.456 Y63.855 E.56273
G1 X127.922 Y63.855 E.01675
G1 X141.145 Y77.078 E.58641
G1 X141.145 Y77.611 E.01671
G1 X127.389 Y63.855 E.61005
G1 X126.856 Y63.855 E.01671
G1 X141.145 Y78.144 E.63368
G1 X141.145 Y78.678 E.01675
G1 X126.322 Y63.855 E.65737
G1 X125.789 Y63.855 E.01671
G1 X141.145 Y79.211 E.681
G1 X141.145 Y79.744 E.01671
G1 X125.256 Y63.855 E.70464
G1 X124.722 Y63.855 E.01675
G1 X141.145 Y80.278 E.72832
G1 X141.145 Y80.811 E.01671
G1 X124.189 Y63.855 E.75196
G1 X123.655 Y63.855 E.01675
G1 X141.145 Y81.345 E.77564
G1 X141.145 Y81.878 E.01671
G1 X123.122 Y63.855 E.79928
G1 X122.589 Y63.855 E.01671
G1 X141.145 Y82.411 E.82292
G1 X141.145 Y82.945 E.01675
G1 X122.055 Y63.855 E.8466
G1 X121.522 Y63.855 E.01671
G1 X141.145 Y83.478 E.87024
G1 X141.145 Y84.011 E.01671
G1 X120.989 Y63.855 E.89387
G1 X120.455 Y63.855 E.01675
G1 X141.145 Y84.545 E.91755
G1 X141.145 Y85.078 E.01671
G1 X119.922 Y63.855 E.94119
G1 X119.389 Y63.855 E.01671
G1 X141.145 Y85.611 E.96483
G1 X141.145 Y86.145 E.01675
G1 X118.855 Y63.855 E.98851
G1 X118.322 Y63.855 E.01671
G1 X141.145 Y86.678 E1.01215
G1 X141.145 Y87.211 E.01671
G1 X117.789 Y63.855 E1.03579
G1 X117.255 Y63.855 E.01675
G1 X141.145 Y87.745 E1.05947
G1 X141.145 Y88.278 E.01671
G1 X116.722 Y63.855 E1.0831
G1 X116.189 Y63.855 E.01671
G1 X141.145 Y88.811 E1.10674
G1 X141.145 Y89.345 E.01675
G1 X115.655 Y63.855 E1.13042
G1 X115.122 Y63.855 E.01671
G1 X141.145 Y89.878 E1.15406
G1 X141.145 Y90.411 E.01671
G1 X114.589 Y63.855 E1.1777
G1 X114.055 Y63.855 E.01675
G1 X141.145 Y90.945 E1.20138
G1 X141.145 Y91.478 E.01671
G1 X113.522 Y63.855 E1.22502
G1 X112.989 Y63.855 E.01671
G1 X141.145 Y92.011 E1.24865
G1 X141.145 Y92.545 E.01675
G1 X112.455 Y63.855 E1.27234
G1 X111.922 Y63.855 E.01671
G1 X141.145 Y93.078 E1.29597
G1 X141.145 Y93.611 E.01671
G1 X111.389 Y63.855 E1.31961
G1 X110.855 Y63.855 E.01675
G1 X141.145 Y94.145 E1.34329
G1 X141.145 Y94.678 E.01671
G1 X110.322 Y63.855 E1.36693
G1 X109.789 Y63.855 E.01671
G1 X141.145 Y95.211 E1.39057
G1 X141.145 Y95.745 E.01675
G1 X109.255 Y63.855 E1.41425
G1 X108.722 Y63.855 E.01671
G1 X141.145 Y96.278 E1.43789
G1 X141.145 Y96.811 E.01671
G1 X108.189 Y63.855 E1.46152
G1 X107.655 Y63.855 E.01675
G1 X141.145 Y97.345 E1.4852
G1 X141.145 Y97.878 E.01671
G1 X107.122 Y63.855 E1.50884
G1 X106.588 Y63.855 E.01675
G1 X141.145 Y98.412 E1.53252
G1 X141.145 Y98.945 E.01671
G1 X106.055 Y63.855 E1.55616
G1 X105.522 Y63.855 E.01671
G1 X141.145 Y99.478 E1.5798
G1 X141.145 Y100.012 E.01675
G1 X104.988 Y63.855 E1.60348
G1 X104.455 Y63.855 E.01671
G1 X141.145 Y100.545 E1.62712
G1 X141.145 Y101.078 E.01671
G1 X103.922 Y63.855 E1.65075
G1 X103.388 Y63.855 E.01675
G1 X141.145 Y101.612 E1.67444
G1 X141.145 Y102.145 E.01671
G1 X102.855 Y63.855 E1.69807
G1 X102.322 Y63.855 E.01671
G1 X141.145 Y102.678 E1.72171
