; generated by PrusaSlicer 2.7.1+win64 on 2024-04-18 at 17:12:16 UTC

; 

; external perimeters extrusion width = 0.42mm
; perimeters extrusion width = 0.44mm
; infill extrusion width = 0.44mm
; solid infill extrusion width = 0.44mm
; top infill extrusion width = 0.40mm
; first layer extrusion width = 0.42mm

M201 X500 Y500 Z100 E5000 ; sets maximum accelerations, mm/sec^2
M203 X500 Y500 Z10 E60 ; sets maximum feedrates, mm / sec
M204 S500 T1000 ; sets acceleration (S) and retract acceleration (R), mm/sec^2
M205 X8.00 Y8.00 Z0.40 E5.00 ; sets the jerk limits, mm/sec
M205 S0 T0 ; sets the minimum extruding and travel feed rate, mm/sec

; printing object motor controller adapter.stl id:0 copy 0
; stop printing object motor controller adapter.stl id:0 copy 0

;TYPE:Custom
G90 ; use absolute coordinates
M83 ; extruder relative mode
M104 S150 ; set temporary nozzle temp to prevent oozing during homing
M140 S60 ; set final bed temp
G4 S30 ; allow partial nozzle warmup
G28 ; home all axis
G1 Z50 F240
G1 X2.0 Y10 F3000
M104 S210 ; set final nozzle temp
M190 S60 ; wait for bed temp to stabilize
M109 S210 ; wait for nozzle temp to stabilize
G1 Z0.28 F240
G92 E0
G1 X2.0 Y140 E10 F1500 ; prime the nozzle
G1 X2.3 Y140 F5000
G92 E0
G1 X2.3 Y10 E10 F1200 ; prime the nozzle
G92 E0
G21 ; set units to millimeters
G90 ; use absolute coordinates
M83 ; use relative distances for extrusion
; Filament gcode
M107
;LAYER_CHANGE
;Z:0.2
;HEIGHT:0.2
;BEFORE_LAYER_CHANGE
G92 E0
;0.2


G1 E-6 F3600
G1 Z.2 F9000
;AFTER_LAYER_CHANGE
;0.2
G1 X97.612 Y84.862
G1 Z.2
G1 E6 F2400
M204 S500
;TYPE:Skirt/Brim
;WIDTH:0.42
G1 F1200
G1 X98.612 Y83.862 E.04434
G1 X100.01 Y83.021 E.05115
G1 X101 Y82.873 E.03139
G1 X107.8 Y82.873 E.21321
G1 X108.578 Y82.964 E.02456
G1 X150.779 Y92.964 E1.35982
G1 X152.228 Y93.712 E.05113
G1 X153.158 Y95.053 E.05117
G1 X153.377 Y96.25 E.03815
G1 X153.377 Y132.75 E1.14443
G1 X152.983 Y134.333 E.05115
G1 X151.893 Y135.547 E.05116
G1 X150 Y136.127 E.06208
G1 X100 Y136.127 E1.56771
G1 X98.417 Y135.733 E.05115
G1 X97.203 Y134.643 E.05116
G1 X96.623 Y132.75 E.06208
G1 X96.623 Y87.25 E1.42662
G1 X97.017 Y85.667 E.05115
G1 X97.576 Y84.91 E.02951
; printing object motor controller adapter.stl id:0 copy 0
G1 E-4.2 F3600
;WIPE_START
G1 F7200
G1 X97.612 Y84.862 E-.0285
G1 X98.612 Y83.862 E-.67175
G1 X100.01 Y83.021 E-.77495
G1 X100.686 Y82.92 E-.3248
;WIPE_END
G1 X146.593 Y116.375 F9000
G1 E6 F2400
;TYPE:Perimeter
;WIDTH:0.419999
G1 F1200
G1 X146.736 Y116.375 E.00448
G1 X147.415 Y116.24 E.02171
G1 X147.755 Y116.099 E.01154
G1 X148.33 Y115.714 E.0217
G1 X148.591 Y115.454 E.01155
G1 X148.936 Y114.938 E.01946
G1 X148.936 Y131.686 E.52512
G1 X136.818 Y131.686 E.37995
G1 X136.914 Y131.571 E.0047
G1 X136.914 Y128.929 E.08284
G1 X136.843 Y128.569 E.0115
G1 X136.633 Y128.257 E.01179
G1 X136.29 Y128.041 E.01271
G1 X135.971 Y127.986 E.01015
G1 X134.968 Y127.986 E.03145
G1 X135.064 Y127.871 E.0047
G1 X135.053 Y124.593 E.10278
G1 X134.95 Y123.946 E.02054
G1 X134.859 Y123.666 E.00923
G1 X134.557 Y123.074 E.02084
G1 X134.387 Y122.839 E.00909
G1 X133.914 Y122.366 E.02097
G1 X133.676 Y122.193 E.00923
G1 X133.18 Y121.94 E.01746
G1 X132.804 Y121.8 E.01258
G1 X132.01 Y121.686 E.02515
G1 X117.99 Y121.686 E.43959
G1 X117.196 Y121.8 E.02515
G1 X116.916 Y121.891 E.00923
G1 X116.324 Y122.193 E.02084
G1 X116.086 Y122.366 E.00923
G1 X115.64 Y122.811 E.01975
G1 X115.443 Y123.074 E.0103
G1 X115.141 Y123.666 E.02084
G1 X115.05 Y123.946 E.00923
G1 X114.936 Y124.74 E.02515
G1 X114.936 Y127.871 E.09817
G1 X115.05 Y127.986 E.00508
G1 X114.029 Y127.986 E.03201
G1 X113.71 Y128.041 E.01015
G1 X113.367 Y128.257 E.01271
G1 X113.157 Y128.569 E.01179
G1 X113.086 Y128.929 E.0115
G1 X113.086 Y131.571 E.08284
G1 X113.2 Y131.686 E.00508
G1 X101.064 Y131.686 E.38052
G1 X101.064 Y114.72 E.53196
G1 X101.13 Y114.879 E.0054
G1 X101.514 Y115.454 E.02168
G1 X101.774 Y115.714 E.01153
G1 X102.35 Y116.099 E.02172
G1 X102.69 Y116.24 E.01154
G1 X103.369 Y116.375 E.02171
G1 X103.736 Y116.375 E.01151
G1 X104.415 Y116.24 E.02171
G1 X104.755 Y116.099 E.01154
G1 X105.33 Y115.714 E.0217
G1 X105.591 Y115.454 E.01155
G1 X105.975 Y114.879 E.02168
G1 X106.116 Y114.539 E.01154
G1 X106.251 Y113.86 E.02171
G1 X106.251 Y113.492 E.01154
G1 X106.116 Y112.814 E.02168
G1 X105.975 Y112.474 E.01154
G1 X105.591 Y111.898 E.02171
G1 X105.33 Y111.638 E.01155
G1 X104.755 Y111.254 E.02168
G1 X104.415 Y111.113 E.01154
G1 X103.736 Y110.978 E.02171
G1 X103.369 Y110.978 E.01151
G1 X102.69 Y111.113 E.02171
G1 X102.35 Y111.254 E.01154
G1 X101.774 Y111.638 E.02171
G1 X101.514 Y111.898 E.01153
G1 X101.13 Y112.474 E.02171
G1 X101.064 Y112.632 E.00537
G1 X101.064 Y91.72 E.65568
G1 X101.13 Y91.879 E.0054
G1 X101.514 Y92.454 E.02168
G1 X101.774 Y92.714 E.01153
G1 X102.35 Y93.099 E.02172
G1 X102.69 Y93.24 E.01154
G1 X103.369 Y93.375 E.02171
G1 X103.736 Y93.375 E.01151
G1 X104.415 Y93.24 E.02171
G1 X104.755 Y93.099 E.01154
G1 X105.33 Y92.714 E.0217
G1 X105.591 Y92.454 E.01155
G1 X105.975 Y91.879 E.02168
G1 X106.116 Y91.539 E.01154
;WIDTH:0.469974
G1 X106.275 Y90.865 E.02459
;WIDTH:0.476095
G1 X106.278 Y90.487 E.01362
G1 X106.197 Y90.15 E.01248
;WIDTH:0.448047
G1 X106.116 Y89.814 E.01164
;WIDTH:0.419999
G1 X105.975 Y89.474 E.01154
G1 X105.591 Y88.898 E.02171
G1 X105.33 Y88.638 E.01155
G1 X104.755 Y88.254 E.02168
G1 X104.415 Y88.113 E.01154
;WIDTH:0.468853
G1 X104.194 Y88.044 E.0082
;WIDTH:0.517707
G1 X103.972 Y87.975 E.00918
;WIDTH:0.566561
G1 X103.751 Y87.906 E.01008
G1 X103.356 Y87.913 E.0172
;WIDTH:0.553409
G1 X103.02 Y88.026 E.01505
;WIDTH:0.508939
G1 X102.685 Y88.14 E.01371
;WIDTH:0.464469
G1 X102.35 Y88.254 E.0124
;WIDTH:0.419999
G1 X101.774 Y88.638 E.02171
G1 X101.514 Y88.898 E.01153
G1 X101.13 Y89.474 E.02171
G1 X101.064 Y89.632 E.00537
G1 X101.064 Y87.691 E.06086
G1 X101.441 Y87.314 E.01672
G1 X102.611 Y87.314 E.03668
;WIDTH:0.468853
G1 X103.008 Y87.339 E.01409
;WIDTH:0.517707
G1 X103.405 Y87.363 E.0157
;WIDTH:0.566561
G1 X103.802 Y87.387 E.01732
G1 X104.032 Y87.363 E.01007
;WIDTH:0.517707
G1 X104.263 Y87.339 E.00917
;WIDTH:0.468853
G1 X104.494 Y87.314 E.00823
;WIDTH:0.419999
G1 X106.735 Y87.314 E.07026
G1 X106.735 Y89.753 E.07647
;WIDTH:0.469974
G1 X106.71 Y90.908 E.04102
G1 X106.735 Y91.6 E.02459
;WIDTH:0.419999
G1 X106.735 Y96.371 E.14959
G1 X106.824 Y96.771 E.01285
G1 X107.046 Y97.071 E.0117
G1 X107.316 Y97.242 E.01002
G1 X107.678 Y97.314 E.01157
G1 X148.936 Y97.314 E1.29361
G1 X148.936 Y104.841 E.236
G1 X148.936 Y112.415 E.23748
G1 X148.591 Y111.898 E.01949
G1 X148.33 Y111.638 E.01155
G1 X147.755 Y111.254 E.02168
G1 X147.415 Y111.113 E.01154
G1 X146.736 Y110.978 E.02171
G1 X146.369 Y110.978 E.01151
G1 X145.69 Y111.113 E.02171
G1 X145.35 Y111.254 E.01154
G1 X144.774 Y111.638 E.02171
G1 X144.514 Y111.898 E.01153
G1 X144.13 Y112.474 E.02171
G1 X143.989 Y112.814 E.01154
G1 X143.854 Y113.492 E.02168
G1 X143.854 Y113.86 E.01154
G1 X143.989 Y114.539 E.02171
G1 X144.127 Y114.875 E.01139
G1 X144.514 Y115.454 E.02184
G1 X144.774 Y115.714 E.01153
G1 X145.35 Y116.099 E.02172
G1 X145.69 Y116.24 E.01154
G1 X146.369 Y116.375 E.02171
G1 X146.533 Y116.375 E.00514
G1 E-4.2 F3600
;WIPE_START
G1 F7200
G1 X146.593 Y116.375 E-.0285
G1 X146.736 Y116.375 E-.06793
G1 X147.415 Y116.24 E-.32884
G1 X147.755 Y116.099 E-.17484
G1 X148.33 Y115.714 E-.3287
G1 X148.591 Y115.454 E-.17499
G1 X148.936 Y114.938 E-.29484
G1 X148.936 Y115.783 E-.40136
;WIPE_END
G1 X149.313 Y116.401 F9000
G1 E6 F2400
G1 F1200
G1 X149.313 Y132.063 E.49107
G1 X136.124 Y132.063 E.41353
G1 X136.537 Y131.571 E.02014
G1 X136.537 Y128.929 E.08284
G1 X136.46 Y128.643 E.00929
G1 X136.28 Y128.454 E.00818
G1 X135.971 Y128.363 E.0101
G1 X134.274 Y128.363 E.05321
G1 X134.687 Y127.871 E.02014
G1 X134.68 Y124.652 E.10093
G1 X134.523 Y123.837 E.02602
G1 X134.117 Y123.102 E.02633
G1 X133.505 Y122.529 E.02629
G1 X132.745 Y122.172 E.02633
G1 X132.01 Y122.063 E.0233
G1 X117.99 Y122.063 E.43959
G1 X117.255 Y122.172 E.0233
G1 X117.054 Y122.244 E.00669
G1 X116.352 Y122.633 E.02516
G1 X115.779 Y123.245 E.02629
G1 X115.422 Y124.005 E.02633
G1 X115.313 Y124.74 E.0233
G1 X115.313 Y127.871 E.09817
G1 X115.804 Y128.363 E.02179
G1 X114.029 Y128.363 E.05565
G1 X113.72 Y128.454 E.0101
G1 X113.54 Y128.643 E.00818
G1 X113.463 Y128.929 E.00929
G1 X113.463 Y131.571 E.08284
G1 X113.954 Y132.063 E.02179
G1 X100.687 Y132.063 E.41598
G1 X100.687 Y114.532 E.54967
;WIDTH:0.461225
G1 X100.708 Y114.022 E.01775
;WIDTH:0.50245
G1 X100.728 Y113.513 E.01946
G1 X100.708 Y113.167 E.01324
;WIDTH:0.461225
G1 X100.687 Y112.821 E.01206
;WIDTH:0.419999
G1 X100.687 Y91.532 E.6675
;WIDTH:0.461225
G1 X100.708 Y91.022 E.01775
;WIDTH:0.502451
G1 X100.728 Y90.513 E.01946
G1 X100.708 Y90.167 E.01324
;WIDTH:0.461225
G1 X100.687 Y89.821 E.01206
;WIDTH:0.419999
G1 X100.687 Y87.535 E.07168
G1 X101.285 Y86.937 E.02652
G1 X107.113 Y86.937 E.18273
G1 X107.121 Y96.469 E.29887
G1 X107.226 Y96.711 E.00827
G1 X107.461 Y96.894 E.00934
G1 X107.678 Y96.937 E.00694
G1 X149.313 Y96.937 E1.30543
G1 X149.313 Y104.841 E.24782
G1 X149.313 Y112.831 E.25052
;WIDTH:0.446607
G1 X149.3 Y113.829 E.0335
G1 X149.313 Y114.521 E.02323
;WIDTH:0.419999
G1 X149.313 Y116.341 E.05706
G1 E-4.2 F3600
;WIPE_START
G1 F7200
G1 X149.313 Y116.401 E-.0285
G1 X149.313 Y120.13 E-1.7715
;WIPE_END
G1 X146.591 Y116.005 F9000
G1 E6 F2400
G1 F1200
G1 X146.442 Y116.005 E.00467
G1 X145.763 Y115.87 E.02171
G1 X145.559 Y115.785 E.00693
G1 X144.984 Y115.401 E.02168
G1 X144.828 Y115.245 E.00692
G1 X144.442 Y114.667 E.02179
G1 X144.332 Y114.332 E.01106
G1 X144.224 Y113.787 E.01742
G1 X144.224 Y113.566 E.00693
G1 X144.359 Y112.887 E.02171
G1 X144.443 Y112.683 E.00692
G1 X144.828 Y112.108 E.0217
G1 X144.984 Y111.952 E.00692
G1 X145.559 Y111.567 E.0217
G1 X145.763 Y111.483 E.00692
G1 X146.442 Y111.348 E.02171
G1 X146.663 Y111.348 E.00693
G1 X147.342 Y111.483 E.02171
G1 X147.546 Y111.567 E.00692
G1 X148.121 Y111.952 E.0217
G1 X148.277 Y112.108 E.00692
G1 X148.662 Y112.683 E.0217
G1 X148.746 Y112.887 E.00692
;WIDTH:0.449499
G1 X148.895 Y113.563 E.0234
G1 X148.894 Y113.789 E.00764
;WIDTH:0.446607
G1 X148.746 Y114.466 E.02326
;WIDTH:0.419999
G1 X148.662 Y114.669 E.00689
G1 X148.277 Y115.245 E.02172
G1 X148.121 Y115.401 E.00692
G1 X147.546 Y115.785 E.02168
G1 X147.342 Y115.87 E.00693
G1 X146.663 Y116.005 E.02171
G1 X146.651 Y116.005 E.00038
G1 X146.589 Y115.635 F9000
;TYPE:External perimeter
G1 F1200
G1 X145.837 Y115.5 E.02396
G1 X145.193 Y115.087 E.02399
G1 X144.757 Y114.46 E.02394
G1 X144.594 Y113.713 E.02397
G1 X144.729 Y112.961 E.02396
G1 X145.141 Y112.317 E.02397
G1 X145.769 Y111.881 E.02397
G1 X146.516 Y111.718 E.02397
G1 X147.268 Y111.853 E.02396
G1 X147.911 Y112.265 E.02394
G1 X148.348 Y112.893 E.02399
G1 X148.511 Y113.64 E.02397
G1 X148.376 Y114.392 E.02396
G1 X147.964 Y115.035 E.02394
G1 X147.336 Y115.472 E.02399
G1 X146.648 Y115.622 E.02208
G1 E-4.2 F3600
;WIPE_START
G1 F7200
G1 X146.589 Y115.635 E-.0287
G1 X145.837 Y115.5 E-.36291
G1 X145.193 Y115.087 E-.3634
G1 X144.757 Y114.46 E-.36275
G1 X144.594 Y113.713 E-.36317
G1 X144.712 Y113.052 E-.31907
;WIPE_END
G1 X120.8 Y128.814 F9000
G1 E6 F2400
;TYPE:Perimeter
G1 F1200
G1 X129.182 Y128.814 E.26281
G1 X129.086 Y128.929 E.0047
G1 X129.086 Y131.571 E.08284
G1 X129.2 Y131.686 E.00508
G1 X120.818 Y131.686 E.26281
G1 X120.914 Y131.571 E.0047
G1 X120.914 Y128.929 E.08284
G1 X120.842 Y128.857 E.00319
G1 E-4.2 F3600
;WIPE_START
G1 F7200
G1 X120.8 Y128.814 E-.02855
G1 X124.529 Y128.814 E-1.77145
;WIPE_END
G1 X120.242 Y131.923 F9000
G1 E6 F2400
G1 F1200
G1 X120.537 Y131.571 E.0144
G1 X120.537 Y128.929 E.08284
G1 X120.046 Y128.437 E.02179
G1 X129.876 Y128.437 E.30821
G1 X129.463 Y128.929 E.02014
G1 X129.463 Y131.571 E.08284
G1 X129.954 Y132.063 E.02179
G1 X120.124 Y132.063 E.30821
G1 X120.203 Y131.969 E.00385
G1 E-4.2 F3600
;WIPE_START
G1 F7200
G1 X120.242 Y131.923 E-.02865
G1 X120.537 Y131.571 E-.21815
G1 X120.537 Y128.929 E-1.25495
G1 X120.093 Y128.485 E-.29825
;WIPE_END
G1 X115.879 Y128.136 F9000
G1 E6 F2400
;TYPE:External perimeter
;WIDTH:0.57146
G1 F1200
G1 X115.831 Y128.07 E.00359
;WIDTH:0.533595
G1 X115.784 Y128.004 E.00331
;WIDTH:0.49573
G1 X115.737 Y127.938 E.00305
;WIDTH:0.457865
G1 X115.69 Y127.871 E.00282
;WIDTH:0.419999
G1 X115.69 Y124.74 E.09817
G1 X115.795 Y124.064 E.02145
G1 X116.114 Y123.417 E.02262
G1 X116.619 Y122.899 E.02268
G1 X117.225 Y122.58 E.02147
G1 X117.99 Y122.44 E.02438
G1 X132.01 Y122.44 E.43959
G1 X132.686 Y122.545 E.02145
G1 X133.333 Y122.864 E.02262
G1 X133.851 Y123.369 E.02268
G1 X134.187 Y124.008 E.02264
G1 X134.308 Y124.711 E.02237
G1 X134.31 Y127.871 E.09908
;WIDTH:0.458866
G1 X134.274 Y127.937 E.0026
;WIDTH:0.497732
G1 X134.239 Y128.003 E.00283
;WIDTH:0.536599
G1 X134.203 Y128.068 E.00305
;WIDTH:0.575465
G1 X134.167 Y128.134 E.00333
G1 X134.121 Y128.136 E.00204
;WIDTH:0.57146
G1 X130.029 Y128.136 E.17984
G1 X129.764 Y128.117 E.01168
;WIDTH:0.533595
G1 X129.5 Y128.098 E.0108
;WIDTH:0.49573
G1 X129.236 Y128.079 E.00997
;WIDTH:0.457865
G1 X128.971 Y128.06 E.00917
;WIDTH:0.419999
G1 X121.029 Y128.06 E.24902
;WIDTH:0.457865
G1 X120.764 Y128.079 E.00917
;WIDTH:0.49573
G1 X120.5 Y128.098 E.00997
;WIDTH:0.533595
G1 X120.236 Y128.117 E.0108
;WIDTH:0.57146
G1 X119.971 Y128.136 E.01168
G1 X115.939 Y128.136 E.1772
G1 E-4.2 F3600
;WIPE_START
G1 F7200
G1 X115.879 Y128.136 E-.0285
G1 X115.831 Y128.07 E-.03876
;WIPE_END
G1 E-1.73274 F3600
G1 X113.84 Y131.571 F9000
G1 E6 F2400
;WIDTH:0.419999
G1 F1200
G1 X113.84 Y128.929 E.08284
G1 X113.902 Y128.789 E.0048
G1 X114.029 Y128.74 E.00427
G1 X114.821 Y128.74 E.02483
;WIDTH:0.457865
G1 X115.086 Y128.721 E.00917
;WIDTH:0.49573
G1 X115.35 Y128.702 E.00997
;WIDTH:0.533595
G1 X115.614 Y128.683 E.0108
;WIDTH:0.57146
G1 X115.879 Y128.664 E.01168
G1 X119.971 Y128.664 E.17984
G1 X120.019 Y128.73 E.00359
;WIDTH:0.533595
G1 X120.066 Y128.796 E.00331
;WIDTH:0.49573
G1 X120.113 Y128.862 E.00305
;WIDTH:0.457865
G1 X120.16 Y128.929 E.00282
;WIDTH:0.419999
G1 X120.16 Y131.571 E.08284
;WIDTH:0.458866
G1 X120.124 Y131.637 E.0026
;WIDTH:0.497732
G1 X120.089 Y131.703 E.00283
;WIDTH:0.536599
G1 X120.053 Y131.768 E.00305
;WIDTH:0.575465
G1 X120.017 Y131.834 E.00333
G1 X119.971 Y131.836 E.00204
;WIDTH:0.57146
G1 X114.029 Y131.836 E.26114
G1 X113.981 Y131.77 E.00359
;WIDTH:0.533595
G1 X113.934 Y131.704 E.00331
;WIDTH:0.49573
G1 X113.887 Y131.638 E.00305
;WIDTH:0.457865
G1 X113.875 Y131.62 E.00075
G1 E-4.2 F3600
;WIPE_START
G1 F7200
G1 X113.84 Y131.571 E-.0286
G1 X113.84 Y128.929 E-1.25495
G1 X113.902 Y128.789 E-.07273
G1 X114.029 Y128.74 E-.06466
G1 X114.821 Y128.74 E-.3762
;WIPE_END
G1 E-.00286 F3600
G1 X102.697 Y115.843 F9000
G1 E6 F2400
;TYPE:Perimeter
;WIDTH:0.419999
G1 F1200
G1 X102.559 Y115.785 E.00469
G1 X101.984 Y115.401 E.02168
G1 X101.828 Y115.245 E.00692
G1 X101.443 Y114.669 E.02172
;WIDTH:0.458424
G1 X101.315 Y114.232 E.01573
;WIDTH:0.496848
G1 X101.186 Y113.794 E.01723
;WIDTH:0.50245
G1 X101.183 Y113.558 E.00902
G1 X101.271 Y113.223 E.01323
;WIDTH:0.461225
G1 X101.359 Y112.887 E.01208
;WIDTH:0.419999
G1 X101.443 Y112.683 E.00692
G1 X101.828 Y112.108 E.0217
G1 X101.984 Y111.952 E.00692
G1 X102.559 Y111.567 E.0217
G1 X102.763 Y111.483 E.00692
G1 X103.442 Y111.348 E.02171
G1 X103.663 Y111.348 E.00693
G1 X104.342 Y111.483 E.02171
G1 X104.546 Y111.567 E.00692
G1 X105.121 Y111.952 E.0217
G1 X105.277 Y112.108 E.00692
G1 X105.662 Y112.683 E.0217
G1 X105.746 Y112.887 E.00692
G1 X105.881 Y113.566 E.02171
G1 X105.881 Y113.787 E.00693
G1 X105.746 Y114.466 E.02171
G1 X105.642 Y114.698 E.00797
G1 X105.277 Y115.245 E.02062
G1 X105.121 Y115.401 E.00692
G1 X104.546 Y115.785 E.02168
G1 X104.342 Y115.87 E.00693
G1 X103.663 Y116.005 E.02171
G1 X103.442 Y116.005 E.00693
G1 X102.763 Y115.87 E.02171
G1 X102.753 Y115.865 E.00035
G1 X102.837 Y115.5 F9000
;TYPE:External perimeter
G1 F1200
G1 X102.193 Y115.087 E.02399
G1 X101.757 Y114.46 E.02394
G1 X101.594 Y113.713 E.02397
G1 X101.729 Y112.961 E.02396
G1 X102.141 Y112.317 E.02397
G1 X102.769 Y111.881 E.02397
G1 X103.516 Y111.718 E.02397
G1 X104.268 Y111.853 E.02396
G1 X104.911 Y112.265 E.02394
G1 X105.348 Y112.893 E.02399
G1 X105.511 Y113.64 E.02397
